wwlapaki310/UnitreeG1_hackathon/demo/pre/harebare.csv
Frame,root_translateX,root_translateY,root_translateZ,root_rotateX,root_rotateY,root_rotateZ,left_hip_pitch_joint_dof,left_hip_roll_joint_dof,left_hip_yaw_joint_dof,left_knee_joint_dof,left_ankle_pitch_joint_dof,left_ankle_roll_joint_dof,right_hip_pitch_joint_dof,right_hip_roll_joint_dof,right_hip_yaw_joint_dof,right_knee_joint_dof,right_ankle_pitch_joint_dof,right_ankle_roll_joint_dof,waist_yaw_joint_dof,waist_roll_joint_dof,waist_pitch_joint_dof,left_shoulder_pitch_joint_dof,left_shoulder_roll_joint_dof,left_shoulder_yaw_joint_dof,left_elbow_joint_dof,left_wrist_roll_joint_dof,left_wrist_pitch_joint_dof,left_wrist_yaw_joint_dof,right_shoulder_pitch_joint_dof,right_shoulder_roll_joint_dof,right_shoulder_yaw_joint_dof,right_elbow_joint_dof,right_wrist_roll_joint_dof,right_wrist_pitch_joint_dof,right_wrist_yaw_joint_dof
0,-0.47688427567481995,-1.1824899911880493,78.03499603271484,2.6566888379443774,-11.24798451681588,79.05817449105696,5.308259,-2.7833412,8.343774,29.64787,-30.82123,6.0838065,-65.84766,5.239188,-16.650667,129.50507,-11.885481,1.54695,-14.527724,-0.437493,12.553927,-55.25275,5.7520447,-39.11995,65.45699,6.7240534,8.565788,10.901356,8.765226,-15.160473,31.662792,59.066032,-5.227105,2.6825738,-14.794896
1,-0.15478818118572235,-1.1523784399032593,76.86902618408203,1.0010993420416743,-14.389818253618678,74.7414337570698,4.6294146,-0.06437121,8.917293,39.477882,-34.873188,5.8137383,-73.56645,2.0291064,-18.1161,132.04822,-8.99301,-1.3471217,-19.144001,-0.6059322,14.752666,-48.53763,3.6169593,-49.463757,46.53561,16.328146,9.124299,3.9959686,3.2628152,-15.56906,34.143986,58.661884,-8.736302,3.7476866,-14.3664465
2,0.6851145625114441,-0.765116810798645,75.87699890136719,0.9353901170661182,-15.291887550104281,72.60350539937598,4.071975,0.8829341,9.192525,44.12445,-38.067287,4.5095634,-77.30842,-0.3521705,-15.462545,133.17043,-8.401921,-2.2791216,-20.337488,-1.3946501,15.564214,-49.352634,1.308836,-54.18397,33.879147,22.01985,10.142822,0.2083483,2.4992251,-16.161493,32.794186,53.044613,-11.359821,3.7794392,-15.929566
3,2.0870792865753174,0.02877914160490036,75.44232940673828,0.27709699367849355,-15.171672990656813,70.69688798229633,4.1796045,4.0286636,11.087246,46.85337,-40.488483,2.6605358,-76.76484,-1.637602,-11.237963,130.99542,-8.253555,-0.72817665,-19.868343,-2.2106984,15.416709,-51.555866,-0.8463565,-56.686573,15.632185,25.84027,10.738694,-3.4543223,3.3000026,-17.262856,30.043203,41.909855,-16.98605,3.7270424,-17.168533
4,4.02598762512207,1.2474493980407715,76.01904296875,0.0656451476375144,-12.073017410963626,68.00741358394976,3.6352937,6.7878866,13.537676,45.221912,-38.8742,-1.1855565,-69.76503,-4.7989364,-3.5457203,122.64969,-8.055084,1.0519022,-17.38051,-3.3252158,14.095216,-55.241898,-2.1403167,-58.701332,-9.953445,22.782955,5.422049,-4.6062627,8.53121,-19.25796,23.614147,16.48996,-20.251755,-0.527008,-16.602798
5,6.376129150390625,2.726689577102661,76.52423095703125,0.2946035462049398,-8.382708113998977,66.47660401719348,4.3119645,8.616123,15.936304,40.44809,-35.994675,-5.3571324,-58.08836,-6.64292,3.3276408,108.64071,-4.756121,5.3540373,-13.711935,-3.4711196,12.203191,-58.03561,-2.8446882,-56.005,-23.03141,19.066856,0.19801469,-1.511489,16.574295,-21.344727,17.563055,-7.3457766,-18.488766,-5.7573905,-14.784534
6,8.88735580444336,4.263420581817627,76.79834747314453,0.3600475037002637,-5.08112840048557,66.0259524469087,6.3732486,9.973625,17.648912,33.581635,-31.992182,-9.445169,-40.4844,-8.959741,9.092463,86.12001,-4.4954653,12.472487,-9.39859,-3.3173308,8.692999,-56.84042,-2.6873465,-49.193813,-29.394308,14.491014,-4.4741173,3.0298114,24.836441,-22.397604,12.322866,-27.707638,-14.726102,-7.749163,-12.937232
7,11.356395721435547,5.645124435424805,76.40718078613281,-0.5950516285139898,-1.3012974230196344,69.35461652096097,7.1292486,12.211827,15.643292,27.1747,-28.191221,-12.888409,-20.384615,-13.059888,11.520817,56.180943,-6.9914637,15.000033,-3.854229,-3.1289504,3.8758051,-51.89428,-0.9440628,-41.45626,-27.235874,9.759683,-6.4860287,5.539676,32.824894,-22.337431,5.5790544,-43.05907,-9.331362,-8.180283,-11.61306
8,13.546281814575195,6.654186725616455,75.70489501953125,-1.511777447598772,-0.8189532279836556,71.02954809423596,6.8253255,15.768315,13.373721,30.837059,-28.903234,-14.032638,-8.741523,-13.198703,12.388097,38.536823,-10.379259,15.000033,-0.7831497,-2.748148,1.1759264,-39.907597,1.7172241,-41.328407,-22.389872,9.405487,-7.9542713,8.912184,35.406784,-22.7061,4.3738866,-44.128357,-7.6883225,-8.685982,-13.586207
9,15.29554557800293,7.262797832489014,75.17672729492188,-2.5382968832932646,-2.4093598955371283,71.82229908187598,6.2086067,18.439579,9.495821,37.2736,-29.68898,-14.8863535,-2.7728832,-12.4259815,11.847148,32.307262,-14.6352825,15.000033,0.40599614,-1.9663525,-0.89666986,-21.314022,5.3118176,-41.246197,-12.247412,13.643817,-7.817653,16.120968,35.55585,-23.091866,7.4269714,-33.750244,-8.287278,-8.742235,-19.224203
10,16.619766235351562,7.519058704376221,74.24040222167969,-4.398755589382393,-6.143113374047893,73.25278047578784,4.819475,20.738598,3.049758,46.880287,-32.14687,-15.000033,-0.7788336,-11.123051,8.623001,37.073517,-21.810942,15.000033,-1.0205898,-1.3737746,-1.2916527,-6.4575257,9.089302,-40.285835,17.87782,20.682877,1.5507426,17.11271,29.36932,-22.59748,15.681079,-1.6299016,-8.906829,-3.0686846,-22.157816
11,17.60629653930664,7.6031880378723145,72.7829360961914,-5.015696305550122,-8.867785858982138,72.89163137963088,2.5447733,21.101498,-1.6845356,54.408123,-34.0514,-15.000033,-0.8960216,-10.063733,7.8664627,43.47984,-29.017317,14.734406,-2.4935603,-1.2781525,0.054003056,0.37422577,11.374319,-36.120075,40.93875,17.78094,5.380203,17.794546,19.865305,-20.38804,20.091213,32.470318,0.27524653,-0.40910864,-19.390669
12,18.38389778137207,7.61543083190918,71.38248443603516,-5.480604088993159,-10.53901411634502,72.62310755918193,0.42681232,21.97134,-5.247702,59.519405,-36.045364,-15.000033,-1.9456476,-9.25751,7.2701144,49.92002,-34.53086,12.679266,-1.8637227,-0.9953249,2.1583233,3.744028,12.175171,-34.26727,61.669727,6.3373494,5.089865,17.07251,13.808075,-17.380499,23.999592,59.21053,18.698778,-0.48625058,-15.257547
13,18.96930503845215,7.6703057289123535,70.24143981933594,-6.819191563122508,-9.023839948423202,73.17386635537545,-4.24934,23.179722,-9.851538,65.70838,-36.647697,-15.000033,-2.4507499,-7.58072,6.2812424,49.9894,-36.789257,13.055811,1.1812624,0.96820277,1.0658978,3.4131458,15.619242,-22.286394,75.71244,-15.284229,3.8664742,21.396898,8.887256,-16.450937,18.128187,72.671906,34.49583,-1.2759911,-18.110281
14,19.32141876220703,7.765163421630859,70.36224365234375,-7.1574287385661455,-7.382862732637901,74.54771612518836,-6.80103,22.660711,-12.421954,67.58625,-34.247444,-15.000033,-1.9858304,-6.38145,6.2948174,47.459503,-36.16632,13.609568,3.262742,2.0302484,0.46464178,3.3878152,23.23174,-10.683262,74.57798,-31.843563,0.29443333,27.682354,7.348131,-20.075104,8.107033,71.244385,47.394417,-4.5466743,-24.016483
15,19.48041534423828,7.873617172241211,71.22531127929688,-5.627440222553034,-6.174149132372782,76.25898361769366,-7.5692477,21.534626,-11.229547,66.40087,-31.56776,-14.291177,-1.3947923,-7.843581,6.158219,45.227352,-33.88989,14.666157,3.2873683,1.3273009,3.7197042,11.762267,32.813347,8.123443,53.87633,-37.07555,-0.7276055,33.830574,11.352228,-27.276001,-7.528287,50.43032,46.961384,-3.9455495,-27.47832
16,19.519323348999023,7.926413536071777,72.52193450927734,-2.123288675211283,-5.615431824986045,77.77446471072807,-5.310924,18.464966,-8.162126,60.9531,-32.14753,-14.956317,0.37946644,-13.165245,3.7185664,41.612186,-30.711557,15.000033,3.8331695,0.1529823,6.1050196,17.273039,38.08304,32.64662,21.925373,-31.724411,-2.582568,39.092686,18.50016,-32.797768,-27.984186,16.818392,33.88818,-2.6478813,-33.186325
17,19.299589157104492,7.894203186035156,73.95797729492188,0.16607292506981702,-6.718000526118152,80.72785377570159,-3.0408106,17.45931,-4.93506,56.05768,-29.843208,-14.02212,2.5128307,-17.084888,0.8235507,40.763767,-26.082949,15.000033,3.7759483,0.5361377,5.999303,13.452794,40.534645,45.62923,2.089354,-22.117327,-1.683907,42.98712,18.925495,-36.36852,-41.222107,-6.564417,26.454926,-1.1566423,-36.511837
18,18.89691925048828,7.831339359283447,74.53895568847656,1.6758605523050965,-5.235319983023126,81.46675037413823,-0.70493585,16.034885,-2.3041854,49.126034,-30.783194,-13.965376,1.7047113,-20.227615,-1.2723199,39.5032,-22.739666,15.000033,3.6105163,1.062794,4.958626,7.696922,42.444485,53.381355,-14.078072,-16.375252,-3.598176,43.96235,14.672187,-39.276325,-50.620205,-24.48096,19.52423,-1.6818188,-38.25313
19,18.378681182861328,7.68300199508667,74.63963317871094,3.4863967321933726,-3.7700217883409866,81.5900937807803,0.8541133,12.936061,-1.8260723,44.716385,-32.344803,-13.919535,-1.2280878,-23.666164,-2.2145934,41.980698,-19.669725,15.000033,3.5473225,1.4081956,3.083774,0.13199249,43.77758,53.889618,-28.434958,-10.453466,-8.0459585,43.45356,6.7776656,-41.968403,-52.929703,-41.18918,13.504011,-7.932371,-36.365204
20,17.777936935424805,7.457423210144043,73.80844116210938,4.6312737206491255,-3.639110098419028,81.51237860710995,-0.034173157,10.480162,-2.2513404,47.47118,-36.29158,-12.503923,-4.9849024,-25.623423,-0.5309514,47.878174,-20.996778,15.000033,3.4219847,1.7728208,2.0011652,-5.152143,44.312477,50.647377,-35.41832,-7.256244,-13.403705,42.405354,-2.0537744,-44.230335,-48.413807,-48.126926,13.242584,-13.022082,-30.806484
21,17.14217185974121,7.198849201202393,72.0862808227539,5.561744677064876,-4.304347941277296,80.25222132622564,-2.782947,7.01442,-4.2845516,56.187008,-42.2483,-10.20575,-10.525539,-28.51635,1.5700392,56.879883,-25.251045,15.000033,3.7017233,2.1487832,2.0894172,-9.389491,43.525997,41.796215,-42.258488,-5.504623,-22.290266,38.914505,-10.48133,-45.840134,-36.043434,-52.615513,12.889898,-20.289408,-22.15245
22,16.536279678344727,7.0008649826049805,70.45860290527344,5.953954630792938,-4.238804971323443,79.16612084106457,-5.895123,5.4072547,-4.6061687,63.932316,-45.033585,-9.261965,-15.4973755,-31.656805,2.1923864,63.581703,-26.984465,15.000033,3.798796,2.9789314,2.2625692,-12.4705,42.676056,33.44189,-49.494373,1.4638976,-23.994202,29.400705,-15.645489,-47.60366,-25.613455,-54.442112,8.226892,-21.246267,-13.38569
23,16.04241943359375,6.890227794647217,69.64063262939453,5.578956130626064,-5.679431150036158,79.32143768447037,-6.263056,6.029139,-4.2475605,67.97974,-47.01153,-9.505826,-16.148008,-32.733295,2.1695573,66.93906,-28.60265,15.000033,2.7804782,3.4382906,2.552126,-11.085261,44.096527,38.725796,-53.53589,2.8807387,-23.465563,27.168037,-18.491169,-51.652218,-30.30073,-53.46834,8.04257,-21.424423,-12.704129
24,15.729305267333984,6.921265125274658,69.81723022460938,4.189417499359271,-6.327120785476094,81.1132875298014,-5.8037734,8.92444,-3.65721,67.43159,-47.193592,-10.617408,-14.341479,-31.040974,0.8544502,66.59245,-29.036673,15.000033,1.3949895,3.3695662,3.0269487,-6.480624,47.44269,54.283928,-52.593815,-2.7043824,-22.005112,30.661783,-15.726312,-57.46824,-48.062473,-48.402393,14.714249,-18.857351,-16.902542
25,15.53035831451416,7.095065116882324,71.84981536865234,2.1333376815157616,-6.800128091248887,83.1937567027588,-2.5206254,13.300859,-1.4455073,59.545647,-44.46473,-12.3089075,-9.115401,-26.973085,-1.4902301,59.790436,-27.882927,15.000033,1.2748039,2.644275,4.096773,2.5837858,52.159992,69.744736,-38.796288,-10.0292425,-13.157445,41.800514,-0.11796057,-63.371685,-70.05643,-30.714478,19.999384,-9.953577,-35.170483
26,15.493657112121582,7.348223686218262,74.55733489990234,0.41996238920245527,-5.623020176887669,85.19822139450959,0.61241657,16.365786,1.3878444,48.10845,-38.443325,-13.47523,-4.1789346,-23.74312,-4.7464867,49.487556,-24.11494,15.000033,1.5863701,2.0654197,4.9725575,10.386952,56.873867,74.392815,-22.151642,-14.351453,-7.9797626,41.901005,14.629333,-67.65655,-80.374504,-11.902798,26.314056,-6.6109314,-38.373283
27,15.634256362915039,7.599727153778076,76.79039001464844,-0.6538530165687283,-3.8635039472866084,86.69600159206239,3.2946093,17.45077,3.5769584,37.26997,-31.748713,-14.351725,0.68492097,-20.877716,-7.169831,37.998028,-19.216244,15.000033,1.3136395,1.3573989,5.786498,17.615622,61.515385,72.890755,-5.3108287,-15.978774,-4.044329,35.92272,23.310762,-70.85636,-80.985344,4.4293594,31.633615,-3.4153972,-35.305798
28,15.917186737060547,7.80276346206665,78.12191772460938,-1.9726946263119036,-1.8218975754370428,88.73146981579244,3.1838815,17.688063,2.6473613,31.949373,-25.588337,-14.282726,4.3997264,-17.752752,-8.523611,29.523098,-15.081772,15.000033,0.30759847,0.5723475,6.1065135,30.848347,65.16157,60.16995,10.709121,1.4685403,0.4689964,23.200686,27.201101,-72.67633,-65.6327,15.372279,17.235815,1.8157502,-21.469444
29,16.331035614013672,7.91349983215332,78.84242248535156,-2.064321020112408,-1.9724850739789983,90.43347565639905,3.3240366,16.097906,-0.51363754,30.120975,-22.955711,-14.970276,6.1535153,-17.136755,-9.658017,28.190886,-15.262878,15.000033,-1.4043874,-0.45897022,6.256106,37.808193,67.88338,41.723682,17.706932,19.880857,4.8868055,3.5234072,26.493216,-72.93295,-43.91169,14.971796,-0.42328364,0.903033,-1.923937
30,16.865636825561523,7.989409446716309,79.1152114868164,-1.171562851060121,-3.8495444175364306,92.10157215789937,3.992341,14.249194,-3.0088105,30.426035,-21.47062,-15.000033,7.027816,-18.2176,-10.657795,31.268116,-18.173555,15.000033,-2.9213555,-1.4911662,6.9286723,44.315372,69.62702,23.497715,4.8293576,32.292484,7.132818,-9.208041,33.96743,-71.17968,-22.423855,-11.031136,-17.204239,-3.1948347,17.80036
31,17.59080696105957,8.12053108215332,78.44802856445312,-1.3248797905672198,-5.062468318652958,91.99504353940932,2.7712882,14.1346855,-5.54392,34.640896,-23.164568,-15.000033,4.776221,-18.152178,-9.864695,38.208977,-22.463257,13.023077,-2.1569831,-2.76315,8.077408,49.848114,70.96804,10.814315,-14.672023,36.31785,7.7943325,-9.378277,42.794888,-69.52097,-9.465781,-34.199383,-27.349684,-2.1668844,18.35507
32,18.406850814819336,8.35623836517334,77.50604248046875,-1.6434016854650153,-5.59998781860107,92.10162433086481,0.6230961,14.992391,-6.7970824,39.504135,-25.24925,-15.000033,3.4188042,-17.231836,-9.001175,42.78902,-26.919117,12.043652,-1.4652501,-3.437186,7.3089952,47.075085,71.98428,4.285283,-32.989815,36.26772,5.897135,-9.374001,40.117043,-67.8953,-3.5617344,-45.345158,-29.30708,-2.1276124,17.089281
33,19.283843994140625,8.734956741333008,76.0997543334961,-2.4176900573772793,-3.5385945877761196,91.89700912293257,-3.13144,17.190905,-7.0320134,43.628277,-26.311462,-15.000033,1.0170238,-15.684378,-8.717847,45.821823,-31.6808,11.55396,-0.9730539,-4.189996,5.405928,39.84492,70.673096,0.9239886,-47.538197,30.948727,1.1091448,-1.0916595,33.56199,-64.22697,-1.9825754,-51.581764,-26.344332,-6.583328,7.190604
34,20.187320709228516,9.156538963317871,74.60941314697266,-5.15877046514137,-1.0025349303027875,91.80180650383042,-8.373349,21.61239,-8.612282,50.1077,-24.21676,-15.000033,-0.37609753,-11.243488,-8.960593,46.15493,-35.092453,10.951714,-0.41829732,-4.767248,1.6869252,22.900545,63.502724,1.0312692,-47.776627,19.266409,-5.1242948,17.075832,22.632658,-55.745403,-4.409618,-46.51139,-19.870968,-11.066341,-15.011913
35,21.18962860107422,9.50745677947998,73.71693420410156,-6.81701764178476,-0.15144303736811743,92.62955474598074,-11.110013,25.300922,-9.732303,53.801205,-23.430647,-15.000033,-1.2138149,-8.145303,-9.368519,48.37376,-37.29208,9.232562,-1.5275627,-5.961373,-2.2239723,9.260947,55.695152,6.4821644,-34.389694,7.2853885,-11.242727,33.737232,14.309089,-47.03201,-12.139175,-33.576588,-11.4543,-12.37876,-30.476921
36,22.19980239868164,9.75964641571045,73.22032928466797,-7.3657999065509605,-0.7081183457221033,92.65354539310668,-12.842025,26.91029,-11.396935,58.809277,-22.292046,-15.000033,-1.1726103,-6.2233386,-8.959594,50.5508,-38.31213,8.424649,-1.9528923,-6.5464344,-4.642309,6.371515,49.920746,15.494451,-19.328327,-3.687006,-14.249514,49.767765,15.741469,-39.654984,-20.600903,-19.129183,-0.50205296,-9.942521,-45.133587
37,23.160873413085938,9.845685005187988,73.39424133300781,-9.297730833330313,-4.828504482599193,92.47898449562736,-14.111706,29.98616,-13.837676,65.59974,-18.409756,-15.000033,1.6427,-0.86171293,-5.8673215,51.980877,-39.355137,6.231318,-1.6961946,-5.158649,-3.8526633,12.583984,45.502697,20.974949,-6.0132446,-15.553074,-10.608571,61.825108,18.982811,-33.46111,-25.34959,-4.242986,17.387663,-9.2554655,-50.851105
38,23.930580139160156,9.892847061157227,72.82379150390625,-9.95095053365963,-5.493111913329647,90.72550036685561,-14.830862,30.749039,-14.9196,69.2282,-20.295053,-15.000033,1.2829369,1.5605574,-3.9251544,53.66847,-39.905064,4.3509536,-1.0781316,-4.138911,-2.6551178,20.30382,41.070477,19.04877,7.980951,-32.910534,-7.879071,62.229763,22.252855,-27.47437,-23.10632,14.16641,36.850086,-9.541842,-48.48321
39,24.465482711791992,9.844132423400879,72.21047973632812,-9.286022812833544,-7.278563722031443,89.46258762848998,-15.876517,28.30502,-17.788404,75.7609,-15.876948,-15.000033,1.046965,1.5836002,-2.5606022,58.005318,-41.161163,2.9677317,-0.7581681,-3.4783049,-0.577058,23.059664,38.093517,15.254554,22.936586,-41.27286,-6.0571837,54.367416,22.072958,-22.916555,-19.478836,26.240952,48.649197,-8.899534,-41.72718
40,24.68711280822754,9.793437957763672,71.21558380126953,-8.67370065019353,-8.06954530520388,87.6077904804734,-16.152636,26.31659,-19.53293,81.01316,-15.732274,-15.000033,-0.14101198,1.310507,-1.1217762,62.383183,-43.055088,1.4111512,-0.7111249,-3.0645907,0.7638841,21.779108,34.686523,3.6143365,44.621445,-48.371956,-1.3737476,39.392754,18.890821,-18.252249,-10.194582,46.38363,58.93165,-8.277138,-32.59024
41,24.62712287902832,9.753049850463867,70.49340057373047,-8.365841977692318,-9.095989662790764,87.45085875065033,-16.920067,24.352337,-21.871082,85.71246,-15.51774,-15.000033,-0.7884177,1.5099748,-0.025376929,66.203125,-44.371937,0.90750176,0.071909554,-2.252282,2.4282024,19.829489,33.572083,0.7456832,49.74931,-51.487694,0.80947053,32.21585,18.121885,-16.645039,-10.538323,46.5002,60.368317,-7.251129,-30.368303
42,24.191635131835938,9.810009956359863,69.96330261230469,-7.680700293451015,-8.85350030021035,88.08931207904229,-16.606102,21.501749,-23.050936,87.46966,-15.741504,-15.000033,-1.2471547,1.3094224,1.2710364,67.50096,-45.19351,3.01416,1.0008795,-1.728258,4.457228,19.797903,35.153328,6.1199093,42.327877,-48.901657,-1.1576574,36.3258,21.58536,-17.980608,-20.296268,29.820587,53.661232,-7.5408087,-34.252666
43,23.496477127075195,9.982794761657715,69.99119567871094,-7.406044604655241,-8.380156732508224,88.77053076357822,-14.386148,19.70614,-22.564875,84.84445,-22.138292,-15.000033,-0.7933956,1.1423417,2.3495421,66.04507,-44.886486,6.4896784,2.2956035,-0.6427709,6.21806,19.698635,38.499416,21.947569,21.823362,-43.775574,-3.4212506,45.488613,25.399933,-20.25848,-37.83577,4.3250504,42.234333,-4.1059923,-39.72129
44,22.61236000061035,10.277650833129883,70.82954406738281,-6.449353679011878,-7.776374771826859,89.77309174084444,-13.12736,19.623793,-19.028387,79.71321,-24.059942,-15.000033,-0.024266414,-1.3645957,2.0959795,63.368244,-43.388317,9.049142,2.8300116,-0.27291864,7.083576,15.616684,41.55595,35.781956,3.521099,-32.752796,-1.86738,49.942154,24.06984,-22.681211,-50.54629,-17.247646,29.157387,-0.7026476,-39.85768
45,21.62779998779297,10.673147201538086,72.82228088378906,-5.453634579117187,-7.81474591552972,91.10058785076697,-11.098519,19.780144,-15.664857,72.09135,-22.017544,-15.000033,2.7243853,-4.526301,1.0954827,56.817043,-39.87613,10.97908,3.1326883,0.26335955,6.836441,9.032508,45.085022,46.358406,-11.352133,-23.808779,-0.9032131,50.36443,20.068651,-25.995605,-60.935585,-36.711857,23.250473,1.0397896,-39.83222
46,20.576190948486328,11.172652244567871,75.01669311523438,-2.330367461849429,-5.239179330888907,92.21941389699428,-4.7789283,17.079445,-10.677913,57.19436,-24.81552,-15.000033,5.4319615,-12.004678,-3.431366,47.05148,-33.781803,13.6436615,4.1386642,-0.77065176,5.1187696,-1.1867908,49.39939,47.19215,-28.373734,-9.815356,-2.8539345,42.147106,15.525794,-30.511007,-65.101974,-56.003773,15.376114,-3.2020872,-36.99327
47,19.555313110351562,11.596857070922852,76.46553802490234,-0.7339401400648659,-3.0526103616438793,92.37924705882166,-0.12867093,16.048243,-7.9457073,45.697803,-22.88597,-15.000033,7.586182,-15.253367,-5.9769583,38.993618,-28.838535,15.000033,4.242477,-2.067771,2.8634188,-11.111201,53.73153,39.353592,-36.57979,-2.1594958,-4.5680194,36.504944,7.899349,-36.992,-56.89673,-60.000134,7.210778,-6.3439736,-29.567963
48,18.571138381958008,11.818865776062012,77.10618591308594,-0.28999019154905803,-1.1230277635357542,91.67623711970906,3.173792,14.894279,-7.622922,37.72031,-20.611559,-15.000033,8.788912,-16.26715,-6.838378,33.011177,-24.936325,15.000033,3.35062,-2.0646138,-0.16459146,-23.624218,56.983646,22.885674,-38.253136,4.4588513,-5.7588286,32.151535,-1.9742401,-43.503788,-35.90642,-60.000134,-0.8932125,-6.934833,-22.203249
49,17.616512298583984,11.741604804992676,77.24748992919922,0.556819240735613,0.5570239976736829,90.1927975587584,4.3196917,12.7700615,-8.198958,35.05735,-19.687536,-15.000033,9.045084,-17.97167,-7.10956,28.981106,-22.50678,15.000033,1.7899619,-1.1303073,-1.7216893,-21.080887,55.0066,3.3683517,-45.966694,9.66362,-7.8825884,29.074915,-8.918704,-44.51397,-5.3439,-56.666264,-5.284224,-9.38441,-15.596628
50,16.63213348388672,11.296467781066895,77.08529663085938,-0.2718982142094045,-1.8283562045573376,87.21487327622373,5.1243725,11.5699215,-8.579233,38.615623,-23.008215,-15.000033,8.731937,-18.517794,-5.2912292,32.042946,-23.454153,15.000033,2.194168,1.2995431,1.0429472,-0.118186384,50.3471,-7.702817,-59.094173,16.007679,-6.8003793,24.849266,5.292251,-41.55362,11.559518,-60.000134,-10.9446125,-8.481827,-11.505471
51,15.675880432128906,10.598769187927246,77.00148010253906,-0.15413677699952447,-4.401964821134475,83.25418270298758,5.5177794,11.167323,-5.4286795,42.81513,-28.440128,-15.000033,6.995251,-19.85464,-2.0756617,35.899227,-23.99565,15.000033,2.0361173,3.2008245,3.39819,13.311541,46.54644,-16.215101,-58.00518,20.572495,-4.4117465,17.302185,17.649239,-39.56547,18.829494,-49.90493,-13.517206,-5.4637237,-7.3003592
52,14.694446563720703,9.782125473022461,76.15443420410156,1.5647045237907653,-8.211249968159422,78.57783056569518,5.2684164,7.9130793,-3.6653218,51.664185,-35.173344,-11.462922,3.3407958,-23.03881,2.3236237,44.410248,-24.986137,15.000033,1.9013762,4.6156664,3.342934,18.54873,41.725014,-21.201572,-37.48152,23.832579,1.6358845,12.507703,21.263733,-36.86434,22.197083,-19.381617,-16.674103,1.3927461,-6.745273
53,13.793889045715332,9.091797828674316,75.25017547607422,2.7236278467308606,-8.719073328332684,74.67621380763921,4.3922105,5.9650593,-1.3670136,55.4751,-38.83915,-9.142484,-0.66070944,-23.090343,7.6278806,46.59096,-24.555004,15.000033,2.4826133,6.2861686,2.424674,17.282232,37.616367,-16.194609,-14.1100645,22.351824,1.6163132,14.830727,19.316238,-35.505966,16.294918,1.3020825,-15.736626,2.7474008,-7.958278
54,12.90772533416748,8.605857849121094,74.64151000976562,4.5432857720613,-9.51388773667909,72.85978178260613,3.9610975,4.876826,2.084512,57.9353,-41.309086,-6.430813,-4.1223445,-26.125301,8.773843,49.161263,-23.288818,15.000033,2.5496912,6.6649323,1.3089968,13.846099,37.1271,-4.753231,5.482729,19.643745,1.6610819,19.176575,13.719945,-38.186195,5.463924,11.920725,-11.62837,3.7827203,-12.412153
55,12.09351921081543,8.463845252990723,73.86544036865234,6.10607363356526,-6.225032838656324,70.81653033218359,1.8931183,4.5288854,6.8463798,57.20267,-43.41021,-4.334472,-8.462201,-28.2743,9.896108,46.382046,-21.906084,15.000033,1.3532147,6.850923,3.6959672,15.937639,40.757576,16.904179,11.602972,6.382831,0.03102761,30.261452,10.511316,-44.84342,-15.810275,10.461443,5.6988287,0.8162987,-25.919127
56,11.338820457458496,8.47378158569336,74.19010162353516,5.031286316713791,-5.7785693103136415,69.37032012405504,2.757592,5.743289,9.006313,55.554897,-43.715034,-3.6100028,-9.585311,-27.651497,8.942705,44.674644,-17.234528,15.000033,1.0069801,7.4556966,6.4287486,18.860498,44.18487,41.542114,6.213934,-12.893923,-2.527073,39.610817,12.235921,-50.457882,-41.4358,0.6518272,20.885588,0.106830895,-34.06183
57,10.679110527038574,8.582184791564941,74.29878997802734,4.276337484188022,-4.260199075435416,67.56281378334015,3.4043345,6.570968,11.787375,52.734913,-44.42417,-3.401847,-10.753742,-27.941776,7.2476006,41.95142,-14.18798,15.000033,1.3404084,7.705692,7.026695,15.887162,46.511124,58.349823,-1.7923372,-21.74659,-6.2484736,44.86709,7.502356,-53.492107,-52.91262,-9.316206,23.98135,-2.3826268,-36.754856
58,10.12370491027832,8.619869232177734,74.41827392578125,3.989655487679249,-4.929980316437707,66.73333105572897,5.0628204,6.864399,13.47166,51.48168,-44.987617,-3.729742,-11.288627,-28.506977,5.4150605,42.461773,-11.434684,15.000033,1.8211408,8.349347,6.199994,8.688787,48.56232,66.50454,-10.462232,-18.838629,-4.9154086,47.9397,-3.2198498,-55.59941,-52.742214,-20.839128,20.39639,-3.9171474,-36.245216
59,9.64621353149414,8.592995643615723,74.08329010009766,3.8650537416154958,-5.431712377837206,66.60510020915136,4.743095,6.5769734,13.2500305,53.169415,-46.33566,-3.5504935,-12.742358,-29.153896,3.9380789,45.004387,-12.491037,15.000033,1.8930641,8.525445,5.208023,2.3347027,50.331505,67.65073,-16.317465,-16.598583,-5.4737043,48.17466,-14.027815,-56.785652,-46.78619,-27.411884,17.304571,-5.071195,-35.499252
60,9.246016502380371,8.5029935836792,73.24854278564453,3.9945200733746495,-6.313415453678741,66.54060766528958,3.691229,5.6299496,11.855672,57.028664,-48.084194,-3.387941,-15.300873,-29.949234,3.364509,50.36542,-15.083579,15.000033,2.3182712,8.562671,4.0288906,-3.4757383,51.370132,65.65761,-19.43759,-14.234757,-7.4148445,49.073074,-22.276167,-56.441692,-38.19511,-32.416256,15.832371,-7.7303762,-34.236794
61,8.941720008850098,8.398465156555176,72.463623046875,4.445143012918093,-7.910429620222687,65.66749540068807,2.4834738,4.554016,10.817732,62.607647,-48.945126,-2.6351597,-18.482014,-31.214653,2.9956174,56.436783,-16.433905,15.000033,3.7878728,8.350624,2.844492,-8.538634,51.24192,60.708557,-22.592627,-10.9459095,-11.40881,52.841606,-27.933668,-54.22128,-25.452528,-39.02475,13.0387745,-13.991757,-31.049255
62,8.767156600952148,8.443263053894043,71.88147735595703,4.470466368852011,-8.661880302622716,66.46977808312954,1.4767084,4.1239758,9.592929,65.77724,-49.577,-2.704581,-20.632082,-30.937525,3.5613608,61.015354,-17.83877,15.000033,4.0119753,7.12198,2.4210203,-11.068871,50.422874,57.106625,-25.843977,-8.381832,-13.912768,54.096027,-30.011778,-52.206318,-19.163773,-42.96499,12.0476055,-17.781477,-27.339417
63,8.751935958862305,8.70222282409668,71.92779541015625,3.77139277406697,-8.07919573564883,68.27223301644472,0.02151019,3.7706993,7.305974,66.45445,-49.536274,-2.5564635,-21.197338,-30.353369,2.4208064,62.273502,-18.010918,15.000033,3.019323,4.4982324,1.8202338,-11.237413,49.015175,53.298103,-31.382381,-9.1021595,-17.31419,51.94906,-33.929047,-52.773552,-18.734396,-45.106064,12.44424,-19.433542,-20.713892
64,8.937697410583496,9.177545547485352,73.01081085205078,2.544377183686726,-7.288639230080414,71.57180522654487,0.14989637,4.129506,4.6410193,62.852478,-48.641525,-2.754397,-18.695728,-29.255436,0.24099971,59.783386,-17.31875,15.000033,-0.51149905,0.972676,1.1132617,-11.10977,47.2033,47.878326,-39.076283,-11.87256,-16.56642,36.86332,-45.437218,-57.372753,-20.804852,-42.196518,11.751158,-11.178053,-7.794976
65,9.305631637573242,9.831693649291992,74.48822021484375,1.2012373303958561,-6.484957186279705,74.76064090695375,1.3743175,6.497199,4.1085033,57.650845,-45.925846,-3.8075998,-14.15197,-27.11767,-1.4899157,54.300987,-16.1077,15.000033,-2.8036888,-0.6525505,0.15688178,-13.5706835,45.35449,39.465233,-42.811554,-13.7408905,-15.777357,23.762852,-55.9746,-63.361347,-18.709488,-31.09917,10.792433,-6.0212264,-6.759863
66,9.882250785827637,10.559686660766602,76.23104858398438,-0.90569876453912,-5.318502138895795,78.62974793999958,3.3900614,10.222935,3.8464417,49.720924,-41.910427,-6.570276,-7.7599764,-23.241894,-2.539274,45.976246,-15.9624,15.000033,-4.0299034,-0.6874182,-0.62150234,-18.4403,44.456715,30.393433,-44.49099,-10.944697,-13.366539,21.288769,-62.152138,-69.87799,-14.732092,-15.326105,12.742614,-2.2136595,-13.35438
67,10.603886604309082,11.231243133544922,77.8606948852539,-2.3608057168823393,-4.444138217491703,82.13273888160819,6.0620213,13.284531,4.2615814,40.68598,-36.63965,-10.641271,0.0062333983,-19.601475,-1.7598189,35.851738,-14.564472,15.000033,-4.250581,-0.42334735,-1.3099357,-28.349123,46.05388,21.716629,-42.405254,-7.130192,-7.520721,17.407986,-66.58512,-76.638725,-8.534756,2.3368125,18.356112,1.0749124,-21.307901
68,11.41526985168457,11.697888374328613,78.33394622802734,-2.7132419950207254,-4.305249636902085,84.95355070893683,6.7629786,15.516758,4.905381,37.994286,-33.539425,-13.381361,5.5495696,-18.59226,-2.9351587,30.853264,-15.247393,15.000033,-1.7984034,-0.05197952,-2.0640848,-47.476974,48.77635,9.131537,-30.304817,-3.5492814,-3.1521766,19.822788,-68.64495,-81.65742,-5.0932255,11.597046,23.157703,0.48731866,-27.483696
69,12.215682029724121,11.918072700500488,78.37716674804688,-2.9805093002108403,-4.568230544911565,87.3724180976751,6.0193114,16.941402,3.8533232,38.683735,-31.51208,-15.000033,8.411439,-17.280104,-4.488961,29.999146,-16.989788,15.000033,0.27090696,-0.6444182,-2.5178854,-67.4156,51.142,-0.2283903,-20.005508,-6.0601215,-2.2639086,23.671427,-64.46355,-84.318726,-8.223463,11.408776,26.104898,-1.3815261,-32.699856
70,12.839567184448242,11.891319274902344,77.91207885742188,-3.8697751520209933,-4.661238269438107,88.8504612463601,4.092415,18.05104,1.5489424,41.57051,-31.110792,-15.000033,8.500136,-16.776134,-7.7091556,33.551502,-22.137436,15.000033,1.2550318,-1.0106759,-3.2643657,-79.50197,52.47655,-5.5393825,-15.940899,-7.8840623,-4.3243327,28.839558,-54.31783,-83.16138,-16.413364,-0.35941863,22.164333,-7.046202,-39.853622
71,13.345785140991211,11.643189430236816,77.1451187133789,-3.9659743454647165,-5.619052131082196,89.39257040456727,2.5369575,18.522089,0.063565046,45.88817,-32.00508,-15.000033,7.7838078,-17.476532,-9.428857,38.80681,-27.603622,15.000033,2.0945733,-1.5154579,-3.790409,-83.106865,53.05987,-5.603863,-16.608189,-7.466486,-6.333998,31.503511,-44.507378,-78.968094,-24.25202,-11.266507,18.296202,-13.757322,-41.90451
72,13.707679748535156,11.244060516357422,76.42053985595703,-3.7983205197159395,-6.816551326876046,90.46894911113155,1.3822008,18.505188,-1.6770575,49.288494,-33.241093,-15.000033,6.972018,-17.984114,-9.763157,44.15831,-30.862566,15.000033,2.8301537,-2.1577237,-3.6293836,-80.81969,53.356846,-1.8922693,-18.476152,-9.549151,-7.769148,33.330914,-39.9292,-74.27618,-28.622215,-20.365484,16.111984,-17.33795,-40.726894
73,13.9492769241333,10.778216361999512,75.34447479248047,-3.043217764345284,-7.296680691604637,92.4912594757405,-0.75667274,17.80663,-3.5628123,52.94845,-34.7694,-15.000033,5.158731,-18.288454,-8.257212,50.330738,-33.25194,15.000033,2.473483,-3.1689649,-3.1303875,-70.18033,52.980087,6.7988405,-22.167831,-10.172162,-8.988488,35.939606,-41.783146,-71.29908,-29.434158,-28.639416,13.320093,-15.332768,-34.209007
74,14.077012062072754,10.274603843688965,74.4859619140625,-2.899286333417578,-8.828515220879272,92.10322760594886,-1.0088452,17.158875,-4.6912303,56.555347,-37.653297,-15.000033,3.8513753,-18.694286,-6.5559063,55.105267,-34.326595,15.000033,1.3655691,-3.4844484,-3.0353985,-58.563396,50.78019,14.65145,-27.091015,-11.897234,-11.348703,39.1338,-51.063133,-70.331924,-25.84148,-31.412947,14.997341,-10.1964855,-27.605263
75,14.11410140991211,9.811549186706543,74.51524353027344,-2.105357254169952,-9.85777362501488,91.62572952252752,-0.1748955,15.588618,-4.5777855,56.62675,-39.366264,-13.296438,3.8182037,-19.520607,-5.3228116,55.551983,-33.552,15.000033,0.9420759,-3.054661,-3.5356493,-50.33582,46.84211,15.626772,-31.220901,-12.140292,-14.105729,39.56906,-61.56975,-69.75496,-18.445707,-25.674934,18.323196,-4.550945,-26.195312
76,14.127424240112305,9.4435396194458,74.8364486694336,-1.1153806286082832,-10.0712707845565,90.76389710313414,0.9088507,13.811303,-4.1339326,54.771053,-39.412445,-12.828935,4.450593,-20.33113,-4.3987703,53.006077,-32.854492,15.000033,1.6498835,-1.6498396,-4.0150375,-49.958588,42.798428,12.591535,-35.048855,-12.014838,-15.412751,37.727608,-69.08667,-68.66534,-11.648213,-19.382744,19.323534,-1.4442,-26.513111
77,14.156265258789062,9.17550277709961,75.35914611816406,-1.0754927356770003,-10.72384088564269,90.04876725730225,2.9236832,14.069184,-2.9387693,51.956142,-38.730972,-13.338929,5.6661386,-20.06575,-4.2461147,50.31164,-32.505295,15.000033,3.7664742,0.711347,-4.3648214,-57.221035,40.728157,9.691555,-33.013355,-9.913434,-11.403624,39.141434,-66.85159,-66.53679,-10.233486,-20.345638,14.323647,-0.44755504,-29.91186
78,14.1912202835083,9.029463768005371,76.32474517822266,-1.2339467466087988,-11.158036845578286,88.7773594640939,5.297563,14.8519335,-0.9162993,47.997993,-36.63597,-15.000033,7.0402694,-20.253017,-5.7471867,46.61629,-30.835733,15.000033,5.524404,2.2735589,-5.224311,-65.32997,41.443565,5.4147034,-28.97968,-4.6473503,-6.5516286,39.722267,-53.87528,-63.52391,-13.033061,-27.44011,10.396565,-3.9126668,-33.360577
79,14.205320358276367,8.989970207214355,77.87049102783203,-1.3477613605300143,-11.65736531690136,88.1090004987461,8.591843,14.459839,0.12770516,41.433704,-32.69571,-15.000033,10.518154,-20.86064,-9.949976,39.68051,-27.701242,15.000033,6.510807,1.9238633,-6.104626,-79.04289,44.284008,-1.84641,-21.286919,-2.3779578,-6.7726727,39.437885,-43.114975,-60.10768,-17.442894,-35.296024,3.2347226,-8.966332,-37.48206
80,14.248982429504395,9.047345161437988,78.27509307861328,-1.1094841934721515,-10.974506396971337,87.66894264723385,9.742537,14.539223,1.5932118,37.788418,-30.939245,-15.000033,10.933802,-20.277739,-9.7483635,36.649227,-26.268383,15.000033,5.3310623,0.22548382,-6.0442038,-86.37101,47.077835,-5.973838,-13.413286,-4.8486104,-6.3672385,39.839375,-41.810875,-57.526527,-20.060354,-38.770065,2.5168185,-10.726972,-36.42385
81,14.283476829528809,9.116756439208984,78.2414321899414,-1.3663261931506068,-9.948906372762425,87.94772298920248,9.795148,15.091768,2.0110986,35.709328,-30.73661,-15.000033,10.582322,-18.533836,-8.03075,35.027122,-24.88273,15.000033,2.9298935,-1.3480912,-5.5176196,-87.41382,49.155903,-6.324593,-9.225221,-7.1882863,-4.2827578,37.90069,-49.926125,-57.452473,-20.35659,-36.82704,5.339359,-7.700933,-34.23461
82,14.313058853149414,9.112046241760254,77.7333755493164,-2.2900950756108283,-9.317444528328643,88.3340741087234,8.874874,16.6284,2.0481627,36.924446,-32.50943,-15.000033,8.74906,-16.189623,-4.763913,37.48855,-25.397833,15.000033,0.6909143,-1.5582188,-5.001549,-75.92779,49.030155,-0.24803355,-13.08595,-7.4373918,-3.5228024,38.392178,-61.44181,-58.12643,-15.907994,-25.841553,10.991163,-2.5424678,-28.027422
83,14.335576057434082,8.959761619567871,76.88739013671875,-1.9232240731789352,-9.57114847044279,88.5047940455711,7.592418,15.926506,1.1045576,40.59369,-35.099865,-14.139141,6.850775,-17.277767,-3.7015781,42.597168,-28.549711,15.000033,-0.52226585,-1.3136327,-4.804366,-59.41377,46.6488,7.317111,-21.204475,-8.654109,-3.086419,40.470943,-68.993385,-58.432503,-14.107838,-17.361664,14.96237,1.974935,-26.87679
84,14.419187545776367,8.669501304626465,75.89973449707031,-1.5163680459103623,-9.991217920671911,88.53273766707728,5.7135015,14.766143,-0.5662989,45.6368,-37.700413,-13.346313,4.4289436,-18.587576,-2.419913,48.741314,-31.537996,15.000033,-0.29007646,-1.304362,-4.6063914,-48.477757,42.099667,11.51732,-27.68581,-11.11526,-4.8454204,42.95784,-67.443565,-57.410313,-14.628517,-16.39457,17.898605,2.541713,-29.219728
85,14.57677936553955,8.276859283447266,74.85908508300781,-1.2243479654195322,-10.72544129488053,87.7738747334476,3.3762455,14.056786,-1.8234754,52.207897,-39.71581,-13.4362135,1.9941481,-19.854948,-1.8393322,54.59969,-35.321953,15.000033,1.6964449,-0.09121886,-3.987325,-49.136505,36.79378,11.984784,-32.542545,-14.86936,-12.655722,42.41857,-54.958187,-52.969307,-16.03808,-25.941559,16.76888,-0.80391455,-33.205704
86,14.790168762207031,7.866248607635498,74.82691192626953,-0.9395394276276968,-12.242883227483285,87.21537898005494,2.7525275,14.850854,-0.909922,55.698975,-39.564686,-14.127774,2.0728564,-21.366953,-3.266757,56.401646,-37.085304,15.000033,3.7542388,1.600285,-3.739604,-53.03709,33.8535,8.021153,-37.269066,-8.479096,-14.04907,43.72344,-39.219074,-46.864723,-12.196205,-38.36278,12.735944,-8.431155,-35.45357
87,15.027883529663086,7.571650505065918,75.4947280883789,-0.9301165595232941,-12.628237443219497,87.23780737770532,3.352285,16.242222,0.8613515,54.09797,-37.500687,-15.000033,3.4395251,-22.21272,-5.905228,54.112965,-36.503002,15.000033,4.935419,1.237023,-3.8018918,-63.68242,34.392277,2.9503608,-35.272728,-2.6559765,-11.598053,45.108627,-29.180332,-42.480434,-9.411676,-46.912697,7.7650957,-15.1674,-36.45558
88,15.188041687011719,7.4563889503479,76.74909210205078,-0.8976916834839684,-11.595496939005368,87.11893945267687,4.9596214,16.22001,2.299036,47.670654,-33.87471,-15.000033,5.6905494,-21.290983,-7.731099,46.899944,-33.53169,15.000033,5.254337,-2.1043215,-4.889048,-79.93715,37.741417,-5.1560984,-22.927753,-2.3057854,-8.526757,40.173683,-28.123404,-41.51016,-11.339557,-49.351925,2.7240252,-14.822853,-29.824247
89,15.228708267211914,7.50757360458374,77.91150665283203,-0.8836736916906109,-11.256406888640692,86.8818839474527,7.4897766,16.060165,3.524105,41.24238,-30.312286,-15.000033,8.290021,-19.835508,-8.150074,40.121582,-30.057865,15.000033,3.0601947,-5.4566,-5.590124,-92.17562,41.084816,-13.254717,-8.390029,-1.8202026,-5.6011047,40.340595,-35.838696,-42.959568,-12.279832,-46.103226,-2.6726537,-9.591294,-25.759064
90,15.109894752502441,7.715270519256592,78.55455780029297,-1.4342152734975893,-10.526191517262292,86.92982492441925,8.88621,16.682812,4.2430744,36.782597,-28.210127,-15.000033,9.983623,-17.38443,-6.9084353,34.710567,-26.339989,15.000033,0.062957905,-7.2586775,-6.0057817,-97.687904,44.087357,-17.97809,3.3411553,-2.859767,-3.1192327,38.227875,-49.946194,-46.904766,-11.366913,-35.583275,-1.3093153,-6.746298,-24.1762
91,14.83473014831543,7.988850116729736,78.46234130859375,-2.2797105482873388,-10.992559198389854,86.35221408475743,9.990828,17.199696,3.5810163,36.173405,-28.863716,-15.000033,10.974056,-15.390666,-4.5275855,33.324135,-25.538633,15.000033,-1.7799308,-6.745179,-6.3131943,-90.41127,46.02315,-15.63659,7.2755322,-3.9552138,-0.5132758,39.20725,-66.03312,-51.68528,-4.624423,-15.5605,2.5203953,-0.82098657,-27.65227
92,14.482105255126953,8.264739990234375,78.09212493896484,-2.809658255500547,-11.231943830517773,85.4959698162659,9.747591,16.817665,1.9674053,38.031677,-30.071108,-15.000033,10.985644,-15.156966,-3.96234,33.834568,-25.556059,15.000033,-2.151599,-4.672527,-6.101463,-74.85228,46.78242,-5.86019,-1.6771364,-5.8206472,-1.0513903,38.507156,-75.51658,-55.993584,-1.0598261,-4.0818896,9.006289,0.7277566,-30.766493
93,14.15146255493164,8.484844207763672,77.53099060058594,-3.3550545844889292,-10.923400178786908,85.55459587683569,9.060811,16.74789,1.0962368,39.468193,-31.574457,-15.000033,10.823511,-15.275729,-4.5067387,34.431583,-25.598537,15.000033,-2.5555434,-2.6405218,-5.4676914,-57.81,45.076904,3.7083247,-13.981947,-7.546638,-1.1090895,37.58794,-77.99171,-58.96856,-2.379373,0.11713467,16.501553,1.6189704,-30.961226
94,13.912566184997559,8.644271850585938,76.81133270263672,-3.4603647493901217,-9.747922987897185,86.16999737953412,7.3716564,16.176456,0.038389076,41.13344,-33.738407,-14.109911,9.873022,-16.494999,-5.8435817,35.718975,-26.775793,15.000033,-0.8675268,-1.1717185,-4.7607217,-47.838696,40.644966,7.969238,-22.729864,-12.209285,-3.7063348,37.196312,-69.0521,-58.939625,-9.700636,-3.7595387,22.469158,1.0580046,-31.50393
95,13.785083770751953,8.712061882019043,76.36136627197266,-3.1817827830278342,-10.26278870899194,84.92806760037021,6.588093,15.313881,-0.25324997,44.913857,-35.43486,-14.054636,8.07926,-17.327961,-4.3561363,39.77408,-28.358994,15.000033,1.4227641,0.7533903,-4.5669875,-50.242657,35.9962,8.1009035,-27.518824,-13.910469,-7.8023977,39.82417,-53.455124,-55.401733,-14.921159,-15.605272,20.897097,-1.4060355,-33.5233
96,13.817669868469238,8.756487846374512,76.05140686035156,-1.9682345597307618,-11.571997253872155,82.5012971627278,6.7595053,14.8246155,1.8925709,48.715828,-36.937714,-14.636601,6.2822666,-18.959612,-2.4733057,43.99524,-30.233332,15.000033,3.8673844,3.4408724,-4.7005105,-57.09196,34.484474,8.749102,-30.559101,-11.029296,-10.855263,42.213875,-38.279774,-50.36458,-15.053287,-29.235302,17.559252,-6.668533,-34.217144
97,13.995594024658203,8.877544403076172,75.9074478149414,0.03402323457903304,-11.720570112393027,81.58537226296954,6.7900553,13.739954,3.9801807,49.482838,-37.479263,-14.328783,5.217258,-22.50059,-3.6200202,46.064,-29.82428,15.000033,6.6660542,4.0927296,-4.8576975,-67.13522,37.62181,7.8489327,-24.629171,-11.720242,-9.955458,41.375896,-25.235165,-46.984142,-13.017211,-43.290108,11.294311,-12.731304,-29.573135
98,14.25126838684082,9.127655982971191,75.49667358398438,1.758926096483546,-10.602808359351267,80.91517907502215,6.4103913,12.661455,5.6586185,48.99271,-38.061382,-14.362072,3.5103116,-24.509825,-3.461106,47.063427,-28.78871,15.000033,7.251508,2.5559652,-4.3852897,-74.802956,42.566772,5.129675,-14.469364,-13.583009,-8.099446,39.93312,-22.725246,-45.935776,-12.60972,-51.026733,8.0397835,-13.566827,-20.718668
99,14.507164001464844,9.494016647338867,75.12847137451172,3.308149258128221,-9.204070603792607,81.46588374662501,6.2628074,11.290237,6.387884,46.972828,-38.479362,-13.635116,1.5787551,-25.881348,-3.2409596,48.683384,-27.490944,15.000033,5.688041,-0.16763592,-4.357093,-77.50543,47.915894,1.6717778,-3.980412,-14.607711,-6.532378,42.11082,-28.66717,-47.879868,-11.988395,-53.04738,5.4302483,-12.47636,-18.635536
100,14.707080841064453,9.916767120361328,75.03609466552734,3.612404985724345,-8.928961139642576,83.12865588980827,6.144136,10.832037,5.30594,46.321167,-38.555,-12.456751,0.0315147,-25.655313,-2.819434,51.82314,-26.356943,15.000033,1.6855385,-2.0388288,-5.0612683,-68.76666,52.733616,3.4144516,1.0482751,-10.561179,-4.8385215,45.571365,-42.798374,-52.832287,-10.623921,-48.59384,1.8681142,-11.8167,-20.567598
101,14.875930786132812,10.354032516479492,74.76990509033203,3.7902433969349927,-8.660414152475134,84.4118499558739,5.3283143,10.302813,3.7563207,47.347492,-39.493946,-10.938045,-1.7530472,-25.03721,-1.026034,54.777626,-27.27649,15.000033,-2.5609982,-2.1066225,-4.687569,-49.61892,55.4445,12.78956,0.1392191,-10.843646,-4.290425,44.35059,-60.674137,-58.78701,-8.254204,-38.429996,4.3998365,-11.020711,-22.640512
102,15.082396507263184,10.749959945678711,74.47061157226562,4.0337647972866275,-8.243178434519193,86.00018486703131,4.1546855,8.933324,0.98696655,48.250103,-40.584984,-10.138292,-3.2224834,-25.077656,0.34048602,57.287224,-29.51786,15.000033,-6.051543,-2.6813169,-3.652148,-31.166353,54.853764,18.330408,-0.67077637,-11.747316,-3.0380154,37.422565,-76.33629,-64.79323,-2.0743597,-25.163841,7.246323,-6.699605,-21.085108
103,15.375244140625,11.07479190826416,74.66975402832031,3.689679671718374,-8.159407549215597,87.95722193213106,3.1950905,7.9809604,-2.278002,48.624367,-39.93649,-10.863617,-3.478126,-25.448553,-0.7102683,58.59769,-32.56338,15.000033,-7.0684996,-4.048212,-3.110459,-17.242996,51.778713,14.886193,-0.043748055,-8.554123,-1.8837677,25.170069,-89.04275,-70.84502,8.671565,-7.5462503,14.372136,-2.948489,-18.178125
104,15.758663177490234,11.37391185760498,75.23069763183594,3.263895500109968,-7.788018820825808,90.15110533702146,2.9783409,8.312554,-3.8845882,46.561127,-37.523014,-13.224053,-2.8901472,-24.438559,-1.7339908,58.1138,-32.904423,15.000033,-6.1547055,-4.730726,-3.3572903,-7.8687806,50.793358,12.114399,-6.184336,0.5737938,-1.2693188,12.472275,-95.31113,-76.70607,27.342016,0.4867266,15.470119,-2.8755434,-5.154564
105,16.210098266601562,11.697185516357422,76.06388092041016,2.979962906222572,-7.697859456930482,92.84659291448052,3.128231,8.751792,-5.283111,43.67919,-33.676178,-15.000033,-1.1951221,-23.626558,-3.6900876,56.353394,-32.38112,15.000033,-5.0770383,-5.711367,-3.0799048,1.3733392,53.43796,9.057406,-16.649586,12.928105,-0.21021399,-1.2488297,-95.105446,-80.91829,48.549725,4.611432,5.925656,-3.3298814,13.579497
106,16.626327514648438,12.09696102142334,77.33641052246094,1.4484652105449765,-8.665558700580945,95.27726594821671,3.1985369,10.279723,-7.363174,42.3046,-28.399147,-15.000033,2.785563,-22.1888,-7.959599,51.916615,-30.91154,15.000033,-6.448833,-6.2899685,-1.6800228,17.483372,61.213593,10.336271,-33.52912,26.89525,0.9484016,-16.731188,-85.25785,-83.975395,66.70119,-1.5501165,-9.335301,-6.4113507,33.736965
107,17.095378875732422,12.690390586853027,78.57665252685547,0.9278508639148162,-7.965152682631056,97.64369567285996,0.94640994,11.69584,-7.8358583,41.222935,-22.874134,-15.000033,5.999297,-20.249527,-10.421008,45.478355,-28.987455,15.000033,-7.6993704,-6.900318,-0.92957747,27.410309,68.28495,14.30003,-43.785366,28.007032,1.1402738,-17.574923,-74.60558,-86.24189,71.06137,-10.715864,-14.554956,-6.080603,35.984913
108,17.528736114501953,13.46930980682373,79.79781341552734,1.5132640328499398,-5.389933016074941,99.17229306422816,-1.9546509,13.571893,-5.682901,39.755272,-18.354803,-15.000033,7.8995214,-19.070951,-12.397902,37.71716,-26.363298,15.000033,-8.190847,-7.4156904,-1.1416055,31.649513,72.61724,16.337519,-50.176456,23.416588,0.6005552,-12.948969,-54.424595,-88.2802,64.009766,-21.495253,-14.142345,-5.5522447,32.576023
109,17.816322326660156,14.346080780029297,80.28543853759766,1.320107878396754,-2.863841385197725,100.05110692490673,-3.776043,15.4959545,-5.224646,39.75808,-15.089243,-15.000033,9.829604,-17.48144,-14.390846,30.751215,-24.08286,15.000033,-7.1944785,-7.186812,-1.0421752,28.95334,71.91952,12.031738,-53.78009,16.736708,-0.21214885,-1.2502596,-19.118261,-87.48346,43.48688,-37.07656,-16.489775,-3.4123473,20.002075
110,17.924787521362305,15.1835355758667,79.72277069091797,0.05075052835956858,-1.5175703605478483,99.7170323478845,-4.942313,16.508957,-6.8071246,40.29744,-15.038245,-15.000033,10.746458,-16.063154,-16.096352,28.726555,-24.74172,14.813621,-4.973739,-5.9470124,0.032810986,25.602312,66.16301,5.775973,-56.717003,10.538599,-2.3689554,7.618659,17.643776,-80.414375,18.644108,-52.396545,-15.102352,-4.540153,4.9989104
111,17.83740997314453,15.863269805908203,78.63666534423828,-1.9267156242438874,-1.0523104635229175,98.18534628857991,-5.636408,17.43802,-9.139034,40.88385,-15.972031,-15.000033,10.650238,-14.440266,-15.948528,29.492584,-27.441328,14.222409,-2.2024899,-3.3024917,1.3791255,23.85052,56.252804,-0.056367915,-58.202,6.954446,-6.2850547,16.070667,30.112806,-67.013435,10.726572,-60.000134,-8.34698,-11.167028,-8.7358055
112,17.597667694091797,16.304180145263672,77.40277862548828,-3.4852117861281213,-2.144606005776397,94.51910976764137,-5.4072742,18.3932,-11.97136,43.70831,-18.603144,-15.000033,9.216365,-13.45363,-12.387597,33.6363,-32.356518,13.866969,0.4466563,-0.7315214,3.2542243,21.09683,44.07063,-4.0912776,-57.433365,3.3404322,-12.99092,27.86836,21.950468,-50.757904,15.266415,-60.000134,1.1556057,-19.084316,-19.776337
113,17.245752334594727,16.502092361450195,76.46497344970703,-3.6170855151082644,-3.5536737600055917,91.27932852545825,-4.6597137,17.475195,-13.870298,47.704964,-23.208391,-15.000033,7.879228,-13.773181,-8.619725,37.82457,-36.11529,13.947219,2.0658731,0.25612816,4.642676,17.363897,34.8105,-5.319849,-54.657097,0.13932179,-16.434813,33.2954,16.642244,-37.720505,17.848913,-60.000134,4.347174,-20.271576,-23.978682
114,16.8024959564209,16.482646942138672,75.9648666381836,-2.998511911425838,-5.779931671385225,88.87101114006225,-4.2223268,15.225472,-14.388421,52.49412,-28.474104,-15.000033,7.0885034,-15.337679,-6.134812,42.537834,-38.11818,14.634397,3.3867671,0.8717579,6.0531874,12.22183,28.60437,-8.513575,-51.60129,-0.39524278,-14.443571,34.370525,12.305661,-28.986605,19.730392,-60.000134,4.879448,-17.348433,-24.245173
115,16.289886474609375,16.344907760620117,75.93648529052734,-1.6821181045263922,-7.549762346086869,86.68940261460465,-4.55717,12.58868,-13.292442,56.429127,-32.92654,-15.000033,6.164537,-17.170704,-3.4612422,45.634922,-38.033524,15.000033,4.329953,2.1927023,6.2845283,4.170475,24.136793,-12.892229,-45.127842,-2.1741753,-10.371515,33.13026,3.492981,-23.575706,21.928158,-53.994972,5.6472406,-12.719974,-21.912382
116,15.706825256347656,16.196687698364258,75.96784973144531,-0.9689300511703439,-8.526796777232205,85.33261280525869,-4.870347,12.098693,-11.013007,58.19769,-35.60864,-14.816375,5.9309955,-17.994122,-1.6273482,46.046432,-37.04971,15.000033,4.496459,3.8736725,5.309238,-5.3408055,20.39468,-16.808392,-35.402985,-0.8992331,-4.234132,32.178875,-7.3719516,-19.817516,24.713287,-42.327972,3.2094686,-6.542869,-21.279705
117,15.033620834350586,16.1322021484375,76.0463638305664,-0.2650838625812065,-9.038177579823556,84.63398721894794,-4.544427,11.639212,-8.4673395,57.95561,-37.697147,-12.947088,6.0171537,-19.29142,-0.9748936,45.436615,-35.947384,15.000033,4.122671,5.285489,4.2536855,-17.67685,16.729939,-19.588648,-22.300447,5.728212,3.4152186,32.262836,-20.408545,-16.638447,25.805145,-26.647278,1.3924259,0.7048966,-23.480589
118,14.345866203308105,16.21048355102539,75.87261962890625,0.5757379906743091,-8.3991638067976,84.09483588059622,-5.306933,11.327802,-5.4846926,58.330025,-40.191216,-10.982636,5.153957,-20.439302,0.7225538,44.777042,-35.043842,15.000033,3.2358391,6.3001084,3.8343296,-33.488297,12.863028,-21.51106,-2.410916,10.522027,9.1833105,29.545118,-37.831387,-13.477968,25.38783,-4.321891,-1.1382811,8.257887,-23.113096
119,13.709343910217285,16.427278518676758,75.65245819091797,1.3277726620810373,-6.859327731999219,83.05012008460898,-5.979977,11.652107,-1.866816,58.019474,-42.4351,-9.772439,4.152089,-22.388065,0.88133085,42.655106,-33.489147,15.000033,2.7391863,7.169194,4.3695006,-46.292664,9.365183,-23.224463,12.92991,16.71702,10.936999,27.252075,-52.14961,-10.732456,25.196484,14.307501,-6.111036,11.596543,-23.496878
120,13.161211967468262,16.724367141723633,75.61161041259766,1.6066997354402404,-6.114639692230232,82.48975405465671,-5.967934,11.9474945,0.5596118,57.83666,-43.241787,-8.676888,4.1563106,-24.320393,-0.3606055,40.84311,-32.28145,15.000033,2.734796,7.6238766,5.0076027,-59.170815,6.5818067,-25.767288,30.331188,16.275198,11.31942,25.470003,-66.30543,-8.676991,25.399754,34.18685,-5.214078,13.084164,-23.008776
121,12.75682258605957,17.059391021728516,75.75918579101562,1.7644548243194413,-5.94096741976357,81.58369437406188,-4.857001,12.39611,2.8455775,56.857174,-44.123917,-7.260367,4.3973556,-25.162416,-0.16804527,38.78565,-30.841656,15.000033,3.5015051,7.76464,6.1221805,-72.53663,4.519745,-29.088385,47.81303,16.198801,12.694741,24.077011,-79.10948,-7.2280164,31.898464,54.030407,-2.429941,13.1663685,-18.608406
122,12.503022193908691,17.40056037902832,76.0415267944336,1.5414433562695522,-5.44183328382316,80.91318848280557,-3.7665675,12.318947,3.6893861,54.652023,-43.934376,-7.990737,4.552917,-25.9426,-1.0831879,37.00243,-28.986286,15.000033,3.8141272,7.336959,6.553753,-81.63183,3.024545,-33.413822,61.439003,18.668905,13.796574,20.29456,-87.17288,-6.0981565,36.190792,67.28685,-8.554237,16.130165,-12.018974
123,12.427325248718262,17.69602394104004,76.39286041259766,1.1661479450202015,-5.807786164906881,81.09644215813307,-2.4747777,13.346343,4.91592,53.356567,-43.896797,-7.853135,3.9372616,-25.645674,-0.40136978,37.835686,-28.265976,15.000033,3.5376813,6.6269374,7.417281,-86.99923,2.0090022,-38.34319,69.90959,19.083673,14.222365,14.533426,-91.89785,-5.3548474,42.069885,74.366714,-10.741424,16.177368,-7.3865886
124,12.535314559936523,17.954631805419922,76.98518371582031,0.8198042772432848,-5.761566933674962,82.06654986106051,-1.5373415,13.853619,5.0419316,50.917973,-42.614506,-7.58918,3.5065238,-25.172132,-0.06400987,37.61099,-26.084429,15.000033,3.0495834,5.6279798,7.849568,-89.81694,1.3935119,-43.904613,74.96437,23.361343,15.005088,4.8289275,-94.52334,-4.992739,46.71315,78.989174,-12.637302,15.41528,-0.9993056
125,12.824146270751953,18.166263580322266,77.7260513305664,0.17604338313652895,-5.571501708474615,82.74993703418913,-0.5201463,14.901124,5.3822436,47.93629,-41.13739,-8.097089,2.9688244,-25.093365,-1.330434,37.039024,-24.557701,15.000033,3.041238,4.8634205,8.167249,-91.363884,0.9740236,-46.128998,76.74391,23.53702,14.805983,2.8011014,-96.122696,-4.808622,47.65395,80.47957,-12.684012,14.983895,0.12383419
126,13.29465389251709,18.344844818115234,78.6717300415039,-0.6036372294411363,-5.333334092966254,83.18155100024238,0.9372496,15.901887,5.4922223,43.81253,-39.033752,-8.6850395,2.5721266,-24.905718,-2.8637614,36.635002,-22.977219,15.000033,2.992351,3.9187691,8.239537,-92.244934,0.62984425,-47.633747,77.418686,22.916317,14.86601,1.2912899,-96.9712,-4.710065,48.31133,81.11018,-13.095611,14.525788,1.0986433
127,13.947847366333008,18.503923416137695,79.6749267578125,-1.1946213487321071,-5.136308853604268,83.15160581166306,3.0287545,16.094378,4.820308,38.40334,-35.79164,-10.483419,2.8365831,-24.834938,-5.3775053,36.02312,-20.856092,15.000033,3.1223903,2.9146852,8.2767935,-92.78412,0.2484436,-49.18273,78.30898,22.439999,14.768943,0.40495205,-97.57611,-4.5811996,48.239723,81.79452,-13.743111,14.339978,2.239126
128,14.796926498413086,18.659208297729492,80.46224975585938,-1.551327451277261,-4.830550456797311,83.48499962560669,4.6764836,16.57813,4.362243,33.700756,-32.717854,-11.464979,3.0550618,-24.250067,-6.8633094,35.277946,-19.68464,15.000033,3.4145029,1.8093302,8.46152,-93.36376,-0.06999423,-50.213608,78.90842,21.509943,14.635764,-0.048212815,-97.77228,-4.4246287,48.27674,81.48749,-13.865414,13.864537,3.2169874
129,15.801279067993164,18.81651496887207,81.0221176147461,-1.4845355061743075,-4.78128924939984,84.01907043487809,6.220283,16.934572,4.045783,29.810991,-29.170818,-12.858236,3.415391,-23.68851,-8.096032,34.40994,-19.166689,15.000033,3.5595603,0.6792486,8.585583,-94.10834,-0.2839504,-50.724987,79.34691,20.030416,14.2099905,0.78289723,-98.20416,-4.3398275,48.482906,81.58713,-12.362165,13.147731,3.7105896
130,16.934560775756836,18.982933044433594,81.38807678222656,-1.3694512506878809,-4.120698139098019,84.6342604271376,7.2438064,17.341242,3.5415797,25.675135,-24.89526,-14.885236,3.9419734,-22.509464,-8.814197,32.94048,-18.173437,15.000033,3.757614,-0.3491601,8.712733,-95.12328,-0.28952703,-51.00354,80.613106,18.024073,13.471782,2.5081277,-99.256035,-4.359942,48.15698,82.55573,-8.943108,12.163102,2.873857
131,18.1052303314209,19.116554260253906,81.59886169433594,-1.1183319302279509,-3.819333485182892,85.87486435747748,7.7640567,17.514946,2.3376634,22.86766,-21.481379,-15.000033,4.4619746,-21.82891,-9.387615,31.97531,-18.513378,15.000033,3.650966,-1.487573,8.684962,-96.053535,-0.10537592,-50.747173,81.66557,16.277481,13.3809395,3.7730653,-100.40371,-4.570977,47.819534,83.528854,-6.8412867,11.788541,1.6319708
132,19.302772521972656,19.181747436523438,81.44388580322266,-0.6830719876240856,-3.482096025553103,87.17737240740865,7.3838935,17.546032,0.58573663,21.763426,-19.299858,-15.000033,4.55432,-21.403152,-10.460896,32.846306,-20.627502,15.000033,3.6371362,-2.6435432,8.696324,-97.130806,0.34472612,-49.548077,82.44444,12.354142,12.510861,6.5432653,-101.420074,-5.0581913,46.55702,84.10395,-3.1449473,11.054562,-0.90445316
133,20.47112464904785,19.130964279174805,80.98480987548828,-0.39384346239069956,-2.907350526667174,88.65158258281724,6.1609163,18.045124,-0.82510537,21.800629,-18.48675,-15.000033,3.8934944,-20.67026,-11.374672,36.68085,-24.550106,15.000033,3.4165924,-4.202024,8.692634,-98.59161,1.0878149,-47.52486,82.42085,10.962043,12.875882,8.795689,-102.93078,-5.872377,43.673355,84.69211,1.2535374,11.358911,-4.0323625
134,21.597400665283203,18.886558532714844,80.3936538696289,-0.5542459387815797,-3.4431457603747067,89.39344543467496,4.5682297,19.149918,-2.2580419,25.446325,-19.543749,-15.000033,2.7688694,-19.829464,-12.009511,41.609695,-28.88131,13.975475,3.3815596,-5.2420936,8.64456,-98.65003,1.9126123,-46.040615,82.02175,9.1321125,12.875612,11.027058,-102.65014,-6.758656,41.880657,84.24922,3.708781,11.156591,-6.0601425
135,22.633174896240234,18.438997268676758,79.5948715209961,-0.881895807137124,-4.041225107156589,90.08339621066466,2.8432605,20.609526,-3.3362675,29.496883,-20.930311,-15.000033,1.135951,-18.810715,-11.9027605,47.145813,-33.05554,12.480321,3.3933196,-6.147302,8.724619,-97.996506,2.6542764,-45.169884,81.25368,7.665717,12.669131,11.893369,-101.758156,-7.528035,40.46123,83.374115,4.8655186,11.311838,-6.580569
136,23.53135108947754,17.766407012939453,78.49656677246094,-2.0742570077995524,-5.4940964035864885,90.87569068960616,0.45987254,23.257524,-4.3905034,35.92439,-21.900541,-15.000033,-0.4871585,-17.425032,-12.27601,53.9029,-37.496037,10.724697,3.091595,-6.8991323,8.712996,-96.571976,3.1766417,-44.966198,80.90925,6.481419,12.521035,11.383658,-99.58423,-8.047596,38.921394,81.238754,1.6939107,11.611999,-6.0433416
137,24.29489517211914,16.92282485961914,77.48977661132812,-2.9755222201636586,-6.493935680542245,91.1766726945817,-1.1307665,25.322628,-4.620222,40.192734,-23.113333,-15.000033,-1.4840163,-15.991236,-12.3226185,57.743782,-40.41929,9.495818,2.7377994,-7.1368165,8.518796,-94.95964,3.4072487,-45.187695,79.9549,5.3502765,12.489877,11.045152,-97.43681,-8.300147,38.41126,79.7613,0.07095795,12.0049515,-5.4818525
138,24.91850471496582,15.9437837600708,76.80419158935547,-3.470098133547763,-7.6916530215249015,91.1674386237454,-2.2545416,26.35656,-4.8605657,43.837463,-25.19821,-15.000033,-2.062105,-14.827629,-11.983142,60.254322,-42.382065,8.899764,2.4181526,-6.957932,8.354246,-93.55179,3.3599224,-44.899696,78.65505,4.61531,12.670321,11.562823,-95.82013,-8.343597,38.338284,78.78179,-1.4901817,12.320112,-5.0447793
139,25.381153106689453,14.885525703430176,76.26563262939453,-3.8176590731772513,-9.095335628064218,91.36579602049456,-3.1911633,26.841629,-4.8197093,47.043663,-26.569788,-15.000033,-2.4474072,-14.2530575,-11.974504,62.598644,-44.210358,8.281866,1.8720777,-6.512449,8.240735,-92.04309,2.969555,-46.976315,77.3481,5.737611,12.538598,9.49946,-94.322,-8.143506,39.38803,78.38576,-2.6838248,13.061404,-2.3625634
140,25.72023582458496,13.84146785736084,76.19879150390625,-3.736484464493326,-9.981705754672525,91.63460869639518,-4.095678,26.734386,-4.6727753,48.785004,-27.250217,-15.000033,-2.7183244,-13.868022,-11.770047,63.16555,-44.69064,8.228689,1.412835,-5.921234,8.202204,-91.19019,2.3109546,-47.69345,75.6951,6.3507686,13.127708,8.703551,-93.613434,-7.8112564,39.90559,78.66565,-2.861684,13.909172,-1.6744355
141,25.936874389648438,12.8831787109375,76.28851318359375,-3.6698723948273315,-10.569451114605686,92.31502843336351,-4.4943175,26.62934,-3.824708,48.6509,-27.219395,-15.000033,-3.078739,-13.408175,-11.473055,63.397606,-44.53672,7.8436904,0.7234386,-5.018556,8.18718,-91.25738,1.4925807,-48.58041,75.22048,5.7396197,14.125806,7.9498334,-93.55635,-7.492575,40.647152,80.1873,-2.9035325,15.193103,-1.110624
142,26.0342960357666,12.083185195922852,76.65885925292969,-3.4401134019997754,-10.84549407918139,93.33820077838966,-4.517892,26.756386,-1.4914429,47.56464,-25.877535,-15.000033,-2.9377835,-13.302323,-11.553103,62.248093,-43.879894,8.416548,-0.13052478,-4.104379,7.946095,-91.64474,0.5804021,-49.922173,75.143845,7.517054,14.993468,6.5513587,-94.63999,-7.2959385,41.012337,82.440315,-0.3257675,16.39471,-0.31265733
143,26.03525733947754,11.508739471435547,77.5563735961914,-2.625237157122923,-11.260191401076435,94.14926175350563,-3.5082364,25.541107,-0.15827306,44.437805,-23.432718,-15.000033,-2.2290356,-13.566784,-11.134687,59.875607,-42.560616,8.6831255,-0.9591124,-3.288598,7.639555,-92.486374,-0.24940522,-50.72886,76.368286,9.458166,16.32601,5.954646,-95.347755,-7.351637,42.968212,84.27736,-0.8697167,17.052244,0.5321295
144,25.9177303314209,11.222143173217773,78.76559448242188,-1.3369303469009657,-11.118923090462099,94.00165777126786,-1.5926816,23.318943,-0.55392826,38.687534,-20.912973,-15.000033,-1.2503865,-14.138859,-10.343097,55.559364,-40.846504,9.36297,-1.6043639,-3.0676327,7.2243223,-93.712105,-0.98386425,-51.18033,77.75148,10.23349,17.281445,4.390258,-96.08511,-7.4860535,44.03494,85.24199,1.1689336,17.146633,1.7350823
145,25.695884704589844,11.24455451965332,80.29446411132812,0.3773947440084068,-10.176546731219263,93.8862765753031,0.97020006,21.563238,-0.021024676,31.364859,-18.115513,-15.000033,0.06193395,-14.650777,-8.977399,49.158466,-38.56371,10.034895,-2.3687441,-2.7381816,6.938144,-95.74509,-1.6777445,-51.59236,79.65587,7.8291373,17.28956,4.4188547,-96.866234,-7.639448,46.01699,86.38427,1.7426943,16.988152,2.2055674
146,25.32949447631836,11.545578002929688,81.2840576171875,1.1276318495852908,-9.561209731579039,93.39280930717673,2.7565866,20.308662,-0.5318812,26.534342,-15.834185,-15.000033,1.3617609,-14.730567,-7.934406,44.24785,-36.319305,10.632879,-2.7420003,-2.2567074,6.989151,-97.91154,-2.369797,-51.716297,81.28578,6.06863,17.080303,4.063439,-97.73818,-7.6973076,48.189564,87.201584,1.5660352,16.613352,2.6136155
147,24.81136703491211,12.092569351196289,82.02815246582031,1.4266784186531756,-8.792007934514086,93.52328123504793,3.902961,19.73007,0.34612042,22.193865,-13.732502,-15.000033,2.5572283,-15.193617,-8.071655,40.416187,-33.896065,11.106621,-3.2756264,-1.7813226,7.2052345,-101.000336,-3.081391,-50.71662,81.69233,-0.5419138,15.566594,6.2952275,-99.142265,-7.782125,49.617912,86.77731,2.31007,15.470048,3.5603812
148,24.16176414489746,12.862141609191895,82.64767456054688,1.5138194047286244,-7.243822129763049,93.26263731234332,4.768974,18.596462,0.12251972,19.568026,-12.8327675,-15.000033,3.7174742,-15.166542,-7.7675834,35.14446,-31.037815,11.892708,-3.2521484,-1.2291387,7.476307,-103.45365,-3.7241194,-49.665146,82.37019,-1.4653485,14.560316,5.926144,-100.5454,-7.863209,51.15387,87.0938,0.65574235,15.568106,3.8553855
149,23.395963668823242,13.756479263305664,83.25006866455078,1.9769725434061733,-6.2761223368688945,92.69507937980725,5.4631453,17.461563,0.1612157,17.724958,-12.314669,-15.000033,5.1198792,-15.753352,-7.114209,30.662176,-28.200657,12.835787,-3.2426047,-0.85295093,7.6485248,-106.09681,-4.349444,-48.48268,83.384895,-4.555911,14.154038,6.1455793,-102.19125,-7.9056635,51.938255,87.770096,2.934376,15.915524,3.6436102
150,22.514816284179688,14.718167304992676,83.61354064941406,2.2527731581121393,-5.334258021105872,92.18157223554402,5.722097,16.723608,0.25620034,16.701717,-12.792097,-15.000033,6.21807,-16.13286,-5.9070807,27.011011,-25.733751,13.872803,-3.020139,-0.30235246,7.9133277,-108.63469,-4.9329357,-47.007202,84.641785,-6.0971155,14.801335,7.605452,-104.26482,-8.008778,52.793705,89.51683,8.700794,15.911743,3.2038755
151,21.510744094848633,15.680233001708984,83.79592895507812,3.1151304547085177,-4.5404853172359605,90.66632757719283,5.5376945,15.354694,0.11723427,17.8691,-14.755855,-15.000033,6.7803025,-17.735289,-4.6289005,24.451582,-24.36062,14.66885,-2.5105038,0.08525024,7.753877,-109.979744,-5.277627,-45.371254,85.90433,-8.570775,13.875174,9.035543,-105.73999,-8.317804,53.436974,89.90897,8.993079,15.052268,2.0667171
152,20.386531829833984,16.58246612548828,83.57846069335938,3.17855180399845,-4.0062787063116385,89.00126180983514,4.7119627,14.456503,0.1862237,21.149805,-18.35561,-15.000033,7.065844,-18.556248,-3.3077502,22.9046,-23.496674,15.000033,-1.7179642,0.8091657,7.6115413,-111.117645,-5.4105706,-42.943764,86.89779,-8.539598,13.414187,11.822601,-107.488525,-8.691124,51.155792,90.32276,14.657957,15.223656,-2.7883327
153,19.1212215423584,17.38507843017578,83.3069076538086,3.2674449850984897,-4.372461277977521,87.50005678466492,3.6459022,13.365838,-0.0073911645,26.076267,-23.204563,-15.000033,7.475416,-19.601608,-1.7478287,22.98335,-23.18766,15.000033,-0.98028344,1.7769549,7.2883782,-111.34215,-5.3747077,-40.770206,86.928986,-9.353113,13.004202,14.42537,-108.27373,-9.154299,48.938374,89.22941,20.39572,14.408143,-6.385695
154,17.732154846191406,18.084148406982422,82.82544708251953,3.1479984646567036,-5.342216695446558,86.98015148495784,1.6644168,11.92285,-1.8521276,33.090313,-27.950993,-15.000033,8.185705,-20.587786,-0.60203224,24.356949,-22.994213,15.000033,0.47638848,3.0500042,7.087384,-110.65597,-5.26323,-39.375008,86.47295,-10.020925,12.752941,16.817133,-107.34355,-9.455498,47.571796,86.62144,20.850584,12.665963,-8.703464
155,16.197341918945312,18.70406150817871,82.12704467773438,2.55622247255596,-5.783092172006582,85.7801607420387,-0.101489134,10.543317,-3.2469645,39.490234,-32.60494,-13.610129,7.99395,-21.691475,0.07823831,25.67855,-22.43647,15.000033,2.0005147,4.181196,7.041174,-109.20216,-4.986383,-38.291492,86.10786,-7.800558,12.110894,18.35283,-106.1008,-9.724299,47.130478,84.88598,18.692638,11.999235,-9.257845
156,14.611750602722168,19.255203247070312,81.33554077148438,2.3425957794207073,-5.627402709305563,85.13953023045563,-1.9018065,8.912043,-3.7479868,44.675884,-36.465866,-11.35497,7.4439793,-23.379972,0.6400619,26.830292,-22.220312,15.000033,3.275448,5.1079764,6.9238434,-107.26425,-4.6739254,-37.65491,85.987625,-4.2309074,11.711595,17.994787,-104.54544,-9.775332,46.565662,82.96473,15.370711,11.9681015,-9.03601
157,13.052619934082031,19.72808837890625,80.91796875,1.6321455033669268,-5.394673339155179,84.36904923051706,-3.019139,8.1373825,-3.4168484,48.110493,-39.358273,-9.449652,8.175143,-25.039967,-0.54156345,25.031914,-21.34569,15.000033,4.280499,6.1104217,6.780989,-105.11264,-4.6951447,-38.679314,85.44338,1.1578523,11.777911,14.924896,-102.98488,-9.378185,46.301933,80.9456,10.002012,13.145114,-7.3800077
158,11.61917781829834,20.11990737915039,80.4583969116211,0.8989932555044677,-5.265085015848395,84.01821946266702,-4.1566653,7.1030345,-3.845947,51.460957,-41.22365,-7.6903553,8.214658,-26.689075,-1.8852919,25.418758,-20.677029,15.000033,5.618998,6.954916,6.65851,-102.84509,-4.685032,-40.33141,86.03065,7.0910354,11.998895,11.190486,-101.7123,-8.797447,46.380146,79.92383,4.0817566,13.99886,-5.7673087
159,10.388806343078613,20.417617797851562,80.20926666259766,0.10537226036778997,-5.683454582803602,83.41255864460332,-4.8940654,6.5781927,-3.8422685,54.796803,-42.09806,-6.2775397,7.773793,-27.807371,-2.5098908,26.786402,-20.573145,15.000033,6.662883,7.493937,6.8011055,-100.72414,-4.505718,-42.58061,86.52536,13.418541,12.745469,8.297975,-100.89065,-8.185972,46.711586,79.7142,1.0738295,14.380416,-5.0555463
160,9.424381256103516,20.642223358154297,80.1014633178711,0.03457228834126718,-5.941798361239383,83.55410582202353,-4.692666,6.5432405,-2.4839497,55.554264,-42.51184,-4.6913877,7.5425425,-29.092001,-3.0213642,27.741533,-19.874968,15.000033,7.3742466,7.6422453,6.7927594,-99.633766,-4.1339264,-45.239227,88.29301,17.243116,13.624159,4.470653,-100.324684,-7.5563555,47.32993,79.14967,1.1105292,13.745265,-4.443402
161,8.757002830505371,20.798603057861328,80.22586059570312,-0.29200246112053635,-6.027065484913058,83.19802867895265,-4.194572,6.57666,-1.7539626,55.220818,-42.44782,-4.075402,7.4649096,-29.591677,-3.8326905,27.62659,-18.687195,15.000033,8.367049,7.8243194,6.583943,-98.691765,-3.5171733,-47.17295,89.00405,19.482418,13.199924,2.29167,-99.92407,-6.9007754,46.840958,78.05758,0.62534875,13.552032,-4.4378486
162,8.373163223266602,20.905263900756836,80.73663330078125,-0.9480391025485303,-6.4172155353124545,82.35360137113832,-3.1576886,6.685136,-1.7260822,54.118702,-41.389168,-4.286009,7.0222087,-29.638641,-4.881069,28.03778,-16.941452,15.000033,9.380145,8.030027,6.404627,-97.74603,-2.8119059,-49.290386,89.602684,21.15482,12.949028,2.0309541,-99.3421,-6.133133,47.34274,76.64358,-2.0997407,12.479958,-2.695496
163,8.265074729919434,20.999446868896484,81.31745147705078,-0.8086478165587142,-7.222165574315298,81.62571742832303,-1.1456234,7.0645843,-0.27597168,51.899178,-40.28044,-4.5028496,6.884115,-29.97557,-5.9688835,27.745155,-14.65061,15.000033,9.756131,7.707203,6.3771358,-97.19401,-1.9064655,-52.47849,89.99134,23.916973,12.969687,-2.4040155,-99.2465,-5.3411922,47.600636,75.861916,-1.9356366,12.011209,-1.8714275
164,8.3914213180542,21.142730712890625,81.97058868408203,-1.0638426039995714,-6.948008013186553,80.68637736490318,0.55532604,8.064147,1.2593933,48.267464,-39.102474,-5.102658,6.348941,-29.930822,-7.6690373,27.681496,-12.636208,15.000033,10.111118,7.554305,6.2342477,-96.27347,-0.9223964,-54.31014,89.86429,24.316992,12.366787,-3.2356246,-99.36993,-4.55781,47.16061,75.18607,-1.7998292,11.317956,-1.578611
165,8.719902992248535,21.344284057617188,82.81255340576172,-1.5418216855070996,-6.773642290337288,79.75274203259163,2.774174,9.025555,2.237308,43.676125,-37.400887,-5.8723373,6.2079887,-29.38812,-9.034651,27.365393,-10.934046,15.000033,10.303416,7.3048778,6.081913,-95.30603,0.08121142,-55.80982,89.11495,24.854324,12.316814,-3.5794165,-99.071594,-3.8014884,46.784187,74.84232,-0.40144008,9.844561,-1.1286966
166,9.228728294372559,21.627416610717773,83.74989318847656,-1.6795776992360325,-6.32785398929344,79.27250742978461,5.4801083,9.4470415,2.9660497,37.247883,-34.482388,-7.300991,5.607196,-28.895975,-9.697388,27.630602,-9.014623,15.000033,9.973741,6.9671445,6.185859,-94.54614,1.0056343,-57.377357,88.756386,24.33157,12.116361,-4.1740494,-99.01484,-3.0765219,46.763546,75.870834,-1.0099365,9.570291,-0.70520085
167,9.89019775390625,21.970016479492188,84.4646987915039,-1.825568359908662,-6.434093913092984,79.06574151697896,8.166117,9.885882,3.2304788,32.109966,-31.49465,-8.988868,4.6209445,-28.564419,-9.571375,28.38905,-7.8673034,15.000033,9.088944,6.612634,6.342708,-94.01862,1.7496525,-58.034462,88.74945,23.499224,12.466654,-4.3307557,-98.99941,-2.330057,46.749943,78.509285,-2.3250332,10.673288,-0.30513206
168,10.693015098571777,22.375022888183594,84.86560821533203,-2.0991607770722442,-5.9945131370685525,79.13568293560091,10.271964,10.532435,3.1138432,27.210838,-29.440617,-10.163172,4.364349,-28.012613,-8.937746,28.379635,-7.125819,15.000033,8.351518,6.170607,6.3728733,-93.628075,2.3620145,-57.927227,87.81153,22.07519,12.95093,-4.8137164,-99.23309,-1.6665013,46.484467,80.48827,-3.3087604,11.777354,-0.09821325
169,11.635394096374512,22.785940170288086,85.07369995117188,-2.45476612499537,-5.610949858147984,79.2418868549882,11.74205,12.289141,4.8307967,24.328783,-27.454758,-11.537831,3.7760336,-27.372328,-8.2125,28.658546,-7.140837,15.000033,7.2874246,5.5563574,6.5123286,-93.79347,2.932858,-57.522243,87.47321,19.050941,12.542555,-3.8105614,-100.007416,-1.1814834,45.27031,82.8799,0.38421127,11.801484,-1.5948341
170,12.71848201751709,23.150094985961914,85.13162994384766,-2.7854521509093857,-5.60939309723182,79.99175453979382,12.669598,13.591008,4.5116496,22.805475,-26.135368,-12.834925,3.8889914,-26.729168,-7.704458,28.521936,-7.694358,15.000033,6.400631,5.010222,6.465346,-93.48614,3.333578,-56.841003,86.767334,17.255188,12.910607,-2.999495,-100.31494,-0.89222914,45.006207,84.98909,0.008935221,12.2001095,-1.9870358
171,13.946667671203613,23.425304412841797,84.89558410644531,-2.9902138329196344,-5.478780785135635,81.09343505199904,12.841044,15.210175,4.3588905,22.443726,-25.815054,-14.021285,4.3360376,-25.885681,-7.3013635,28.138268,-9.319377,15.000033,5.704644,4.324923,6.220632,-93.391365,3.6721323,-55.787678,86.11018,15.273062,12.985625,-1.7765392,-100.33828,-0.80319715,44.09474,86.476234,1.4984776,12.023356,-3.1964757
172,15.289958953857422,23.569623947143555,84.5459976196289,-3.075256993332035,-5.531219493036341,82.13883521560487,12.580397,16.745085,3.7806756,23.130772,-25.807386,-15.000033,4.8390512,-24.738558,-7.2868485,29.05194,-13.098435,15.000033,5.050754,3.1445487,6.0042405,-93.058334,3.87293,-54.901524,85.438995,14.369008,13.117843,-0.4298714,-99.95958,-0.79225546,43.586777,87.79192,1.1179025,12.699998,-3.926399
173,16.714616775512695,23.53704261779785,83.98956298828125,-2.616271012451741,-6.48652598147016,83.25880284743313,12.19501,17.541077,2.5346828,25.540503,-26.181847,-15.000033,4.707512,-23.671463,-7.3755975,31.976198,-18.429352,15.000033,4.4402604,1.5817885,5.748823,-92.54813,3.9936275,-54.690098,84.4702,14.087161,13.16037,0.33492845,-99.34317,-0.9316782,43.203724,88.517746,1.3203447,12.88021,-3.8586435
174,18.21651840209961,23.350460052490234,83.3206558227539,-2.4870151358560397,-6.784381836802072,84.16705013386822,11.082031,18.727732,1.2226967,27.847584,-26.858936,-15.000033,3.9391038,-22.933813,-7.8600454,36.803932,-24.06709,15.000033,4.052636,-0.10415341,5.567557,-92.64033,4.107137,-53.014515,83.48502,12.161891,12.905832,2.924003,-98.73631,-1.220863,41.96888,88.434494,0.36098966,13.194037,-4.479228
175,19.743417739868164,22.98203468322754,82.61713409423828,-2.643367489799073,-8.281212152713305,84.71390362707047,10.167687,21.259531,1.7962577,32.240135,-26.912193,-15.000033,2.466869,-21.487726,-7.9577622,43.972942,-30.27157,14.450747,3.3032231,-2.0787323,5.2679667,-91.443565,4.11423,-53.096195,81.99896,14.609046,12.804364,3.2776442,-97.671364,-1.527422,41.338943,87.9801,-0.2332718,12.838878,-3.0686407
176,21.267724990844727,22.484783172607422,81.91817474365234,-3.2943741623237472,-9.392779686989199,85.74186468061012,8.552508,23.523247,0.33183268,35.54595,-26.98582,-15.000033,1.3634703,-19.608242,-8.25671,49.187115,-34.578922,13.1873045,2.7026703,-3.2610588,5.136423,-90.830444,4.0250793,-53.135197,80.41726,11.138089,12.787401,4.0487833,-96.22359,-1.8493878,41.515358,87.04278,-2.5508454,13.011265,-2.595639
177,22.730287551879883,21.920391082763672,81.20162200927734,-3.420116776331005,-9.073459536835783,86.18005913355721,6.416226,25.750355,0.25224894,38.583115,-26.006222,-15.000033,-0.15124078,-17.85311,-7.9856772,52.51496,-37.81598,12.577868,2.2119193,-3.9811285,5.33614,-90.39772,3.7873466,-53.485542,79.541046,10.683826,12.572988,4.099548,-95.955345,-2.1483386,40.553673,87.09367,-3.3389268,13.9152,-2.276738
178,24.03818130493164,21.27569007873535,80.50514221191406,-3.9860438226356876,-10.14986775055728,86.6662145951387,4.850276,27.83981,-0.27738816,42.827774,-25.610853,-15.000033,-0.6909142,-15.88406,-7.936028,56.127914,-40.615295,11.854825,1.4179684,-4.1370387,5.144143,-88.74078,3.2644897,-55.20939,78.640755,11.936483,12.562498,3.349066,-95.03965,-2.3444686,41.188263,87.81051,-0.095543966,13.572454,-0.576646
179,25.15351104736328,20.625722885131836,80.33391571044922,-3.9074570085713916,-10.883796330547524,87.7586955587518,2.980606,28.179134,-1.2335794,45.14241,-26.596067,-15.000033,-0.73817617,-14.297866,-7.7478223,57.599106,-42.534374,11.455601,0.87351155,-3.8731167,5.5100665,-87.34383,2.4592679,-56.53682,77.55977,15.006744,14.29278,0.624132,-93.797966,-2.4322863,42.053864,88.5728,-4.4148355,15.032484,0.658327
180,26.027515411376953,20.00717544555664,80.41407775878906,-3.4708632427856347,-11.540338120562101,88.57919882950773,0.867213,27.998205,-1.8863392,47.72718,-26.41813,-15.000033,-0.49446267,-13.670084,-7.8018303,58.035416,-43.26869,11.038344,0.28015408,-3.3183093,5.7405763,-86.275795,1.4421762,-57.889954,76.96112,15.683371,15.023248,-0.078488424,-93.06058,-2.468485,43.891853,89.905624,-4.5028324,15.536063,1.9679804
181,26.627429962158203,19.48280143737793,80.93583679199219,-3.142898464194543,-11.11221880633178,89.58541985372254,-1.5655842,27.208405,-3.166931,49.695385,-24.670765,-15.000033,-0.2817932,-12.586381,-7.574902,55.997074,-42.525177,10.700868,0.061724298,-2.4193742,6.2277503,-86.29592,0.30377108,-59.551952,77.141785,16.436237,15.460165,-2.510623,-92.95009,-2.4357798,46.207787,91.78172,-1.9461808,15.365281,2.95383
182,26.943748474121094,19.053226470947266,81.7772216796875,-2.0487005459860512,-10.982861440603328,90.45170273797207,-3.0746953,25.884516,-3.2410438,48.88358,-22.755789,-15.000033,0.116868146,-12.995569,-7.3706975,53.931866,-41.394306,10.79188,-0.3115045,-1.9101086,6.8321786,-86.67123,-0.941252,-60.05816,77.96777,15.841819,15.540653,-1.5788778,-92.63153,-2.3397462,48.23243,93.440895,-1.4094895,15.262991,3.9094899
183,26.98885726928711,18.755348205566406,82.75739288330078,-1.0840264686911303,-10.850892500207555,91.67905368930717,-3.658544,24.219408,-3.3440387,45.83058,-21.074839,-15.000033,1.1691613,-13.674067,-7.6213875,50.844646,-39.441216,11.562735,-0.55703634,-1.3292869,7.22293,-87.39774,-2.166753,-60.093628,78.603806,14.345033,15.43623,-0.711546,-92.21372,-2.237113,49.56855,94.418884,-0.6089823,15.321717,3.5847635
184,26.757061004638672,18.628246307373047,84.17081451416016,0.16414625651880574,-9.597968185021498,92.10179393763218,-2.6368473,22.151695,-3.0594609,38.347893,-17.681503,-15.000033,2.480532,-14.141337,-6.9528556,44.14565,-36.214844,12.565404,-0.362242,-0.61086893,7.6055603,-88.33422,-3.3823109,-59.511982,80.09143,13.092966,15.048774,1.0446923,-91.95338,-2.0255897,49.564266,94.784294,3.5732465,15.278576,2.9513717
185,26.28083610534668,18.645610809326172,85.29045867919922,1.2508343916168265,-8.886429362338925,92.41703143075678,-0.9077801,20.604805,-3.7669337,31.064365,-14.432165,-15.000033,3.9505334,-15.454184,-7.056269,38.861813,-33.35457,13.200781,-0.3211324,0.008273762,7.809125,-89.044235,-4.520269,-58.667564,81.60987,11.949075,14.912311,1.5561527,-91.828545,-1.8009663,49.801228,94.70115,4.936462,15.136322,2.478452
186,25.557392120361328,18.814849853515625,86.16150665283203,2.011623125674817,-8.085996260501576,92.59792447751143,1.2456068,19.649424,-3.9627402,24.275156,-11.733612,-15.000033,5.1224036,-16.49473,-6.839543,34.195965,-30.52625,13.909786,-0.24176264,0.716199,7.9832606,-89.673164,-5.5182805,-58.406345,83.49323,11.438361,14.701293,1.4098054,-91.78535,-1.5886552,49.993656,94.74457,6.187504,14.559292,2.1120746
187,24.601436614990234,19.137483596801758,86.8276596069336,2.6090419249969736,-7.042589264839346,92.20244420536768,3.6677635,18.530247,-4.3312726,18.783943,-10.492871,-15.000033,6.2872934,-17.571068,-6.533012,29.101364,-27.69064,14.50374,-0.10456615,1.511041,8.057466,-90.13824,-6.402304,-57.91944,85.42267,11.658409,14.954997,1.4657872,-92.19329,-1.3421793,50.21667,94.24046,5.7714024,14.676908,1.6285075
188,23.467544555664062,19.595272064208984,87.06538391113281,2.7878631879020968,-6.305113964444574,91.52553252183556,5.190572,17.724335,-4.166319,16.107077,-10.441947,-15.000033,6.951582,-18.479212,-6.0074434,25.960583,-25.705475,15.000033,0.010242041,2.155986,8.029232,-90.85947,-7.084233,-56.415257,86.64338,11.356664,15.292768,2.22821,-92.99443,-1.1669292,49.075317,93.36942,7.044575,14.687963,-0.40075922
189,22.21455192565918,20.184581756591797,87.00083923339844,2.504955201902276,-5.8661234545911,90.41996298915535,6.290604,17.043337,-3.8193412,15.332292,-11.939047,-15.000033,7.6453524,-18.97793,-5.242686,23.425535,-24.045504,15.000033,0.05271025,2.8612416,7.796871,-91.32519,-7.597757,-53.7608,86.98636,10.462599,15.498241,4.2465777,-93.98108,-1.0698044,46.931152,91.46607,8.236132,15.1786995,-2.9169884
190,20.90955924987793,20.905176162719727,86.52809143066406,1.533322673522344,-5.617876620395642,88.52589235960843,6.656785,16.139647,-4.067601,17.219215,-15.394183,-15.000033,8.096981,-19.054005,-4.7136164,21.579634,-21.960695,15.000033,0.1087582,3.2530959,7.587666,-92.88363,-7.688521,-48.8133,86.25683,9.238046,15.397443,9.396679,-95.61092,-1.2529031,43.31008,88.18662,7.124384,15.302486,-7.007004
191,19.610618591308594,21.74445152282715,85.9007568359375,0.8216299208007481,-5.812061308445983,87.16922041159576,6.06694,15.703813,-2.8667583,21.403255,-19.590242,-15.000033,7.5208855,-19.527205,-3.2038574,23.215513,-21.636003,15.000033,0.08441789,3.437739,7.445594,-94.30836,-7.3738017,-44.447685,82.65332,9.963481,15.288251,14.346677,-97.060715,-1.7597414,40.052994,83.67962,6.631377,15.071119,-10.537306
192,18.404613494873047,22.70352554321289,85.2041015625,0.38688772807245225,-5.609282925525592,85.65111425376882,4.1105156,15.281938,-2.0252051,27.935833,-24.915234,-15.000033,6.317182,-20.340773,-1.3936224,25.202768,-21.995512,15.000033,0.4265609,3.5572648,7.1281013,-94.60357,-6.3603487,-38.523445,75.66703,11.296547,14.860274,22.186296,-97.72051,-2.8450062,33.435627,75.750656,5.396218,14.522028,-17.437511
193,17.349092483520508,23.770463943481445,83.80659484863281,-0.11047438706644745,-4.398665558504162,84.13588948149166,-0.059721384,15.171523,-1.7239839,37.68649,-31.184269,-15.000033,2.8275876,-21.234211,1.2607857,30.37967,-23.783592,15.000033,-0.08610002,2.869015,6.491941,-93.2069,-3.9732165,-28.544893,60.122288,10.232533,13.952089,31.07514,-96.85194,-5.5490336,23.465258,59.382446,3.0360403,13.072406,-25.08123
194,16.530109405517578,24.885835647583008,82.47576904296875,-0.4271246529818203,-3.652431882656692,83.87575818755728,-3.214673,15.004207,-2.1611397,45.43461,-35.466335,-15.000033,-0.3263801,-21.495897,4.6761723,37.315254,-24.574564,15.000033,-0.18991832,2.252476,5.6933517,-84.83431,-1.9526396,-23.721413,35.665043,13.468416,11.929567,34.54473,-87.57819,-8.0199175,16.605936,32.71843,-5.7078147,10.770409,-28.552944
195,15.976275444030762,25.997957229614258,81.05900573730469,-0.8768826360801121,-4.083381698511,84.0698123816326,-5.268875,15.732633,-2.2500849,53.135025,-39.278057,-15.000033,-1.4663063,-21.880693,5.7177086,42.94177,-27.055246,15.000033,0.44895577,1.650841,5.517102,-73.82481,-1.8423623,-24.00412,9.5657215,14.759879,8.479127,34.72328,-73.286766,-8.158539,14.401665,3.1452968,-11.8717375,8.750762,-29.257236
196,15.69057846069336,27.12749481201172,79.2319107055664,-1.6410582932777424,-3.208232559841118,85.10699675348101,-9.0465145,16.32117,-4.355448,61.184742,-41.370556,-15.000033,-3.493656,-21.974321,5.4325147,49.375256,-27.905788,15.000033,1.5171127,1.007322,6.6389885,-62.460773,-2.9668977,-28.296005,-13.195708,13.134383,2.7009397,32.784584,-57.02651,-6.5284276,17.369352,-23.99604,-14.305778,3.2958498,-28.316729
197,15.675999641418457,28.20742416381836,77.82307434082031,-2.459476229761306,-2.236443351129542,85.45627907185755,-11.293336,16.394833,-6.6161895,66.26285,-42.66882,-15.000033,-4.2941394,-21.440596,5.2830176,52.805862,-29.240845,15.000033,2.679886,0.45264164,7.6713324,-54.260937,-3.9826612,-32.63585,-24.33897,13.638598,-0.18768714,31.492088,-44.11392,-4.6804523,21.873049,-37.668865,-15.001554,-0.88610214,-26.5831
198,15.914986610412598,29.188159942626953,76.9017562866211,-2.8373890806571826,-0.7750821810108336,85.64286681865474,-12.8289,16.535097,-7.833814,68.62148,-42.808388,-15.000033,-4.8424454,-21.026855,4.9080396,54.81654,-29.620285,15.000033,3.5075533,-0.5464163,8.130943,-48.730774,-4.4668016,-36.22697,-28.910017,15.631561,-1.9316763,30.039566,-34.796055,-3.4158864,26.484514,-44.197548,-16.0371,-3.9142215,-24.10624
199,16.375425338745117,29.99638557434082,77.21400451660156,-2.865693492517987,0.25636076309051636,86.70228391871932,-12.928056,17.266064,-7.8665495,66.86584,-41.196438,-15.000033,-4.7170076,-20.83374,3.0992815,55.363003,-28.255209,15.000033,4.253299,-1.9289122,7.925652,-44.892406,-4.3288083,-39.235714,-29.694921,18.985678,-1.9969447,28.956532,-29.092161,-2.9527977,30.368717,-45.44948,-16.990969,-5.333692,-22.896791
200,17.020692825317383,30.592653274536133,78.3863754272461,-3.2115381280375455,0.8841772149597205,87.79913449493498,-11.699818,18.662752,-7.4632535,62.178112,-38.699173,-15.000033,-3.2066877,-20.100025,0.3134113,52.29535,-26.961105,15.000033,4.671009,-3.1451504,7.389879,-42.80721,-3.8169298,-39.766724,-29.11839,20.837564,-1.4324954,27.281351,-26.572731,-3.040895,32.132492,-44.10272,-18.00263,-5.814457,-21.773264
201,17.7766056060791,30.96887969970703,80.03755187988281,-2.920419841996891,1.5117980953836063,88.65512475124564,-9.326688,19.242764,-6.3088036,54.808544,-34.773964,-15.000033,-1.0248863,-19.561169,-2.3877828,46.385593,-24.922413,15.000033,4.503166,-4.5769715,6.5442405,-42.88527,-3.1895833,-39.412872,-28.423767,21.337517,-1.0617944,27.105368,-27.293531,-3.4513135,33.0672,-42.10031,-18.499676,-5.556729,-21.211763
202,18.580720901489258,31.134021759033203,82.22856903076172,-2.458638004808021,2.1070490851117647,89.07962338583967,-5.3395166,20.012009,-3.726029,44.08283,-28.84385,-15.000033,2.2729845,-18.580257,-5.393332,37.057285,-22.687033,15.000033,4.014027,-5.675333,5.3438954,-44.873363,-2.590327,-37.816685,-27.573471,21.65509,0.20347463,29.506617,-31.18753,-4.0957513,33.39211,-38.841415,-19.445772,-4.541924,-22.164244
203,19.35809326171875,31.11988067626953,83.96277618408203,-2.070334355804278,2.096459469305489,89.4410315820317,-2.0117288,20.490145,-2.1285872,35.940575,-22.613178,-15.000033,5.51264,-17.006844,-6.8474183,28.13266,-19.648306,15.000033,3.0359514,-6.0894413,4.059924,-48.75517,-2.0447998,-34.04208,-24.88056,20.062359,2.3197243,30.994772,-38.477413,-4.8674793,31.071714,-33.411606,-19.840029,-1.7792554,-22.625185
204,20.043685913085938,30.990949630737305,85.17301940917969,-1.7594640807232196,1.5814796675830203,89.33518872155399,0.844271,21.216242,-0.3528821,29.67382,-17.649649,-15.000033,8.234663,-15.843895,-7.5548854,21.268167,-17.344019,15.000033,2.2315052,-6.29005,2.855475,-54.27162,-1.5476533,-29.513346,-18.766037,18.327173,5.2152157,32.101585,-47.51705,-5.5622406,27.636148,-24.610018,-18.98291,2.2544494,-23.508802
205,20.559606552124023,30.83989715576172,85.7276382446289,-1.4759093644353445,1.3914935542714377,88.44845582656801,2.4144988,21.561237,0.88222486,25.235891,-12.896,-15.000033,9.524275,-15.121228,-7.0130496,16.964437,-16.151735,15.000033,1.5970763,-6.259334,1.9051948,-63.91589,-0.6379756,-21.837156,-2.688901,12.567693,9.645923,36.37259,-62.949142,-6.5459876,21.363077,-3.4612854,-15.602272,8.570737,-26.532202
206,20.86532211303711,30.703893661499023,85.86553955078125,-1.1560239051104042,0.41167943216657976,87.55022358071429,3.006724,21.446432,1.0063084,23.688467,-11.824007,-15.000033,10.258183,-15.314576,-7.2603607,15.924877,-16.514847,15.000033,1.4979681,-5.9113054,1.8023012,-73.02116,0.6431827,-18.937597,13.5432,7.588635,11.742821,39.647366,-75.025475,-7.870471,18.421782,16.901556,-10.086183,10.893269,-28.41243
207,20.94659423828125,30.640193939208984,85.87372589111328,-1.0510797056407333,-0.37172077391476227,86.44789168155788,3.4016504,21.354176,0.7916931,23.111063,-11.7798,-15.000033,10.682399,-15.535531,-7.3213983,15.417082,-17.489525,15.000033,1.5199804,-5.479183,2.204283,-80.2,1.777427,-18.533619,26.970154,2.6456707,13.359928,41.122044,-83.51968,-9.105805,17.04236,33.459137,-1.7702167,11.703783,-29.2942
208,20.779150009155273,30.669498443603516,85.24116516113281,-1.3753759175290203,-0.8862299530427481,84.84285048892552,4.739188,21.262875,1.4860252,22.653347,-13.677169,-15.000033,10.742133,-15.917157,-6.7717476,15.9933605,-20.398392,15.000033,1.5513868,-4.743516,3.0383205,-88.158775,2.5431745,-19.740807,43.025608,-3.8648238,14.381524,40.560333,-91.8042,-10.083284,17.30448,52.89518,12.452685,12.664551,-28.898802
209,20.424728393554688,30.75767707824707,84.74575805664062,-1.7279510358758072,-1.7303734904127348,84.2555463920552,5.4464417,21.211365,1.2749306,23.561684,-15.334559,-15.000033,11.132584,-16.310606,-6.8426747,17.290556,-22.218208,15.000033,1.6101568,-3.7050414,3.0251184,-90.11652,2.7058105,-21.532566,47.93802,-4.5094748,15.356243,39.0026,-92.90876,-10.39207,17.766886,56.389133,15.465477,12.961292,-28.284409
210,19.89344596862793,30.909454345703125,84.26741027832031,-1.856017066381993,-2.4388748090451764,83.4808025938403,6.116603,20.361565,-0.19089182,24.779497,-17.758787,-15.000033,11.577874,-16.934011,-6.495413,17.928854,-23.400589,15.000033,1.5836947,-2.5030706,2.183647,-89.19923,2.7749922,-22.118961,46.425346,-4.6033416,15.009253,39.05184,-91.22428,-10.629062,16.34339,52.5736,15.343594,12.672699,-29.497553
211,19.208330154418945,31.10744857788086,83.93887329101562,-1.8113456475155743,-3.619750586771368,82.72294853062148,6.4531903,18.700953,-2.9268126,27.459974,-21.678947,-15.000033,12.151624,-17.734781,-5.732123,18.984951,-24.43337,15.000033,1.6465408,-1.3150043,0.65558845,-85.68393,2.6452208,-22.77347,39.718395,-2.8844244,13.859927,39.043877,-85.5047,-10.713097,13.534846,41.062645,12.31314,10.912637,-31.558733
212,18.397354125976562,31.369125366210938,83.60076141357422,-1.6430002411654425,-4.176350929476129,82.19582084576314,5.391459,17.210169,-4.0620484,32.424583,-24.729668,-15.000033,11.266531,-18.65201,-4.396845,21.734692,-24.543726,15.000033,1.9329191,0.15602256,-0.21813834,-78.906456,1.9384934,-22.411327,25.031353,0.9446307,11.026733,40.41,-77.57586,-9.959825,11.977153,23.637484,4.174909,10.033347,-31.44435
213,17.48611068725586,31.695890426635742,83.23405456542969,-1.6115778446465516,-5.051971337989797,81.49547290618352,4.276788,15.282637,-5.178656,38.24848,-28.856485,-15.000033,10.151829,-19.719784,-3.3351707,25.319515,-24.421345,15.000033,1.8374866,1.6058848,-0.38138428,-70.67636,0.5307034,-23.466284,6.6489825,4.158232,6.09584,38.065166,-67.92127,-8.250994,12.643419,2.4255135,-3.8902724,8.30857,-29.072784
214,16.553178787231445,32.1094970703125,82.53822326660156,-1.6469958727468443,-5.2111185025412015,79.75243811480762,1.6581534,13.18615,-5.8490124,46.308044,-33.932915,-15.000033,7.9039173,-21.101341,-2.1650667,28.895164,-23.957474,15.000033,2.0976584,3.1604161,0.5410283,-61.690517,-0.99441874,-27.436916,-12.986917,5.5294204,0.50036716,32.4329,-54.763916,-5.9031563,16.917679,-21.697546,-9.290969,5.958976,-25.601343
215,15.659652709960938,32.59836959838867,81.70246887207031,-1.712495214812056,-5.11497171843317,78.6954331344,-0.2081889,11.952846,-5.290761,51.69828,-37.787575,-15.000033,6.3827214,-22.3498,-1.2411182,31.266026,-23.800592,15.000033,2.21944,4.364422,1.5697105,-54.495567,-2.2494001,-31.543879,-24.217697,9.122618,-2.5112798,29.20135,-45.651676,-3.8095524,21.83598,-33.865604,-10.233615,2.9849515,-22.282402
216,14.885647773742676,33.13356018066406,81.03563690185547,-1.9637114835977705,-4.649184244170683,78.02435710599983,-1.9217879,11.859365,-4.303659,55.753975,-40.204735,-15.000033,5.2147894,-23.23748,-0.787614,32.620354,-22.610823,15.000033,2.7008703,5.3679476,2.6397352,-48.132263,-3.122046,-35.908092,-31.207487,12.848764,-4.178318,26.265984,-37.693787,-2.265764,27.16157,-40.574993,-11.812425,0.5225212,-19.964249
217,14.249539375305176,33.69387435913086,80.58078002929688,-1.4840087107345787,-3.0701030991766287,77.45735346573181,-3.7282872,10.689239,-3.6339815,57.529984,-41.238583,-13.964709,4.1681185,-24.981518,-1.3004216,32.044434,-20.008617,15.000033,3.6300826,5.748884,3.2163067,-42.1334,-3.4870732,-39.240574,-34.718998,14.765659,-5.5112386,23.82384,-30.929804,-1.413826,32.271824,-43.907207,-13.759514,-1.0679086,-18.71516
218,13.760577201843262,34.203800201416016,80.64624786376953,-0.8476047951008304,-2.1233661431923854,77.8475907511366,-4.0884967,9.732078,-2.8203936,56.785667,-41.12101,-12.527657,4.4662113,-26.61872,-3.020678,31.105335,-17.60581,15.000033,4.387823,5.3769174,2.5940027,-38.015705,-3.371317,-40.479298,-34.479973,16.53241,-5.7204933,23.201422,-27.483038,-1.2399029,34.69074,-43.192593,-15.659637,-1.3565451,-17.683695
219,13.46606159210205,34.60670852661133,80.929443359375,-0.5931002306112835,-1.8717051128434181,78.18969579673355,-3.6743329,9.615322,-1.9268674,55.709187,-40.803734,-11.287998,5.5318255,-27.145647,-4.575269,29.745472,-15.18467,15.000033,5.0653033,5.0600495,1.6328816,-34.365746,-2.8542953,-41.103714,-33.420513,18.229652,-5.0372896,22.532875,-25.476643,-1.6521487,36.240677,-41.043095,-17.191685,-1.3894295,-17.05906
220,13.371674537658691,34.87199783325195,81.41399383544922,-0.21646108598716118,-1.8848390627454705,78.76837214280503,-2.6356559,9.706943,-0.91108483,53.52116,-39.954815,-10.130953,6.7030926,-27.316458,-5.8301578,28.511522,-12.546657,15.000033,5.770609,4.68855,0.42062503,-30.371958,-1.9346838,-41.326496,-31.565372,20.250216,-4.3352275,24.460587,-23.534864,-2.5532792,37.881252,-38.664803,-18.462227,-1.2603195,-17.126322
221,13.447235107421875,34.98112487792969,81.83216094970703,0.10308107766428634,-1.8789123445294469,79.07137941723124,-1.6703606,9.779866,-0.18194962,51.362724,-39.059345,-9.584846,7.507254,-27.445915,-7.2186337,27.465473,-10.274825,15.000033,6.2610507,4.323176,-0.5583055,-27.341728,-0.71403646,-41.169167,-29.847866,19.886463,-4.267717,25.354324,-22.404106,-3.7851353,38.50829,-36.395878,-18.924398,-1.2824327,-17.047333
222,13.671809196472168,34.92401123046875,82.24845886230469,0.529636512876971,-2.094485535764089,79.36227520980685,-0.55970407,9.998256,0.70214325,49.15705,-38.27286,-9.031276,8.177456,-27.645987,-8.815791,26.865673,-8.163687,15.000033,6.7601705,3.8702655,-1.423277,-24.369167,0.75208074,-41.12974,-28.015923,20.340046,-4.5640755,25.644232,-21.007816,-5.2946754,39.96608,-33.85235,-20.160164,-1.357064,-17.2642
223,14.005181312561035,34.71174240112305,82.70453643798828,1.0574735575751082,-2.8845046134486667,79.54841014723216,0.8014599,9.903436,1.1150028,47.371403,-37.362686,-8.235214,8.518518,-27.790321,-9.605724,27.27922,-6.6460867,15.000033,7.239536,3.2205594,-2.2180495,-21.021463,2.472069,-40.93069,-25.430933,20.654177,-4.448086,27.394497,-19.284216,-7.128399,42.08437,-30.293447,-21.624258,-1.0642343,-18.09615
224,14.419720649719238,34.38139343261719,82.7793960571289,1.6469571660805082,-3.5401021734239344,79.65930502060318,1.3572445,9.697415,1.1229148,47.009094,-37.06828,-7.850911,8.392726,-27.848011,-9.93399,28.22362,-6.6744018,15.000033,7.6203895,2.600132,-2.490269,-18.102804,4.2963905,-40.544647,-23.852194,20.439394,-4.377362,26.555822,-17.47508,-9.105283,43.589146,-27.858654,-22.54881,-0.82741356,-17.861336
225,14.873245239257812,33.9636116027832,82.66064453125,2.2667033940927563,-4.412658520106127,79.82972446411796,1.6059643,9.628978,1.1078032,47.705055,-37.187283,-7.434618,7.770611,-28.077543,-10.05897,30.285744,-7.8601704,15.000033,8.006985,1.9740514,-2.6006014,-14.519662,6.1640053,-39.63621,-20.931429,19.666107,-3.536421,26.109037,-15.439983,-11.133236,44.50879,-25.038092,-23.332228,0.3591555,-17.024239
226,15.341699600219727,33.514930725097656,82.37671661376953,2.7436248190961785,-4.825327432334147,80.10953896884325,1.2186086,9.347968,0.3491984,48.638622,-37.45389,-6.9943666,6.053708,-28.381573,-9.668462,33.677555,-9.526632,15.000033,8.513891,1.2331306,-2.3751628,-9.600043,8.109817,-38.202347,-16.287073,19.333994,-1.6695201,25.607615,-12.664075,-13.128104,44.621647,-21.680332,-23.11645,1.6477678,-14.064185
227,15.805549621582031,33.07870101928711,81.79177856445312,2.8744724342381898,-5.039824074175823,80.44754851180606,0.1574607,9.293139,-0.92120165,50.713985,-38.531162,-6.891493,3.9408436,-28.89384,-9.174863,38.383053,-12.097189,15.000033,9.019783,0.83764136,-1.8801411,-3.8301265,10.062257,-34.880325,-11.736157,17.41731,-0.43637738,29.502062,-8.504302,-14.940971,43.391304,-20.13707,-23.895573,2.0023346,-14.021839
228,16.273122787475586,32.6878662109375,81.19222259521484,2.1255387410625404,-5.837467078324062,81.2640419085786,-1.2323291,10.510045,-2.3614438,54.449417,-39.878544,-7.153744,1.435122,-28.871986,-7.900074,44.713543,-15.307798,15.000033,8.806724,0.91354316,-1.1047772,3.3735049,12.3179865,-26.534801,-2.0725095,10.140735,-0.43343595,38.483437,-3.1159396,-16.696507,38.637432,-20.199348,-25.345085,1.5077834,-16.580097
229,16.768892288208008,32.40105438232422,80.65287017822266,2.223706680085183,-6.837902171942039,82.47368506860266,-2.48752,11.27201,-2.9664671,57.889233,-41.30076,-6.8982086,-1.4559631,-30.356512,-7.7309284,50.883472,-19.51472,15.000033,7.912492,0.5069355,0.24732508,11.587767,15.411079,-12.022901,8.300664,-4.023887,-1.9778278,47.417118,1.3297126,-19.007807,30.899714,-19.003193,-22.704021,-0.13590127,-19.584085
230,17.29596710205078,32.308815002441406,79.6796646118164,2.5452557965711833,-6.791596940834255,83.06074935212173,-3.908866,11.370387,-3.898349,60.718494,-41.840805,-7.180061,-3.2586737,-29.96422,-5.9758615,53.590023,-23.138367,15.000033,7.0066695,-0.93412364,2.3509817,18.37608,18.69586,-0.50922817,3.4274266,-10.561537,-3.777535,54.888073,8.437907,-21.866472,27.59181,-20.397474,-22.184195,-1.5616499,-21.473372
231,17.804841995239258,32.435821533203125,79.59540557861328,2.4346305399578143,-7.268565395473598,84.27601944473656,-4.123213,11.911775,-4.826262,61.27282,-41.1259,-7.627796,-2.9207404,-29.036638,-6.424765,54.059708,-24.458162,15.000033,7.6827116,-2.4437711,4.23589,21.91473,20.854961,12.2789545,-6.445432,-16.972916,-4.1468987,54.473953,16.80379,-25.118649,25.653318,-21.822681,-22.22776,-4.6621084,-19.743448
232,18.29526138305664,32.81193161010742,80.45113372802734,1.4503318393994382,-8.19596784888374,86.59586495467991,-2.769712,14.011199,-5.243507,58.53476,-39.22926,-8.216911,-0.830705,-25.02574,-5.86251,52.474148,-24.218477,15.000033,9.042624,-3.3848505,5.7269216,18.200483,21.995783,25.295637,-19.815277,-20.79597,-1.7677034,53.345116,28.421278,-29.028576,24.978947,-16.60903,-28.798498,-2.8408675,-10.620117
233,18.663013458251953,33.45656204223633,81.8095474243164,0.13282903916294717,-7.9635699934072655,88.52712691664446,-1.4975749,16.53699,-4.731705,53.80221,-35.421925,-9.710141,2.0975318,-22.158966,-7.857269,47.59764,-23.370705,15.000033,8.747189,-3.3231013,6.0666428,11.740266,22.737375,32.286064,-29.025543,-17.01468,-0.89394015,49.303246,35.686596,-32.66816,24.532272,-13.652075,-31.551556,-2.9345946,-3.3139367
234,18.918134689331055,34.31647872924805,83.30425262451172,-1.9834421611294328,-6.382905379732958,90.46273276466317,-0.5663336,19.294388,-4.470503,47.381165,-30.332674,-11.369408,6.181153,-18.293524,-10.409361,38.705906,-22.143562,15.000033,7.6666617,-2.84832,5.625601,4.311578,23.887419,34.351936,-37.591072,-10.16464,-0.93728226,47.865864,42.092773,-35.66104,24.16411,-14.04108,-31.555052,-3.9841259,-2.4554758
235,19.075794219970703,35.280792236328125,84.24299621582031,-3.6076021816077968,-4.080337515523689,92.45666544307484,0.2541721,20.77812,-4.477255,41.13001,-24.438719,-13.337677,10.448109,-15.179574,-12.771105,29.080082,-20.519955,15.000033,6.571425,-2.2494621,5.2327547,-3.4423697,26.117294,32.010315,-44.952873,-1.4191061,-1.2743049,44.303177,47.311176,-38.03658,24.41344,-15.531289,-30.473042,-5.9360957,-3.2817755
236,19.195545196533203,36.19203186035156,84.22119140625,-4.706455386698259,-2.5901754168607063,94.3863231726202,-0.06877711,21.974047,-4.1352654,39.725254,-20.652987,-15.000033,13.410133,-12.752242,-13.360765,23.573547,-20.127491,15.000033,5.649481,-1.826681,4.413037,-10.424748,29.136461,29.541359,-47.494488,1.4436421,-3.0046983,41.103558,51.901237,-39.59669,22.930107,-18.005861,-28.830818,-7.23804,-2.9427698
237,19.241008758544922,36.93620681762695,83.6250991821289,-5.1494534289745495,-1.6333893774188077,96.21686874785452,-1.253318,22.82551,-3.4457703,40.880035,-18.240128,-15.000033,14.948344,-11.860688,-14.200919,22.098164,-21.961903,15.000033,4.96861,-2.0292473,3.4890208,-18.156775,32.683006,25.395945,-48.00038,2.6434813,-5.3959813,37.381477,55.570644,-40.44688,21.589266,-20.096794,-27.275072,-9.063985,-3.314476
238,19.24831771850586,37.43326950073242,82.7608871459961,-6.132520545173353,-1.4067639697767966,97.749768874822,-4.0666227,24.391266,-3.440209,45.563866,-18.107841,-15.000033,15.910071,-10.892862,-15.242032,22.839136,-25.780516,15.000033,4.605067,-2.0331264,2.8843317,-26.483755,36.59898,19.887638,-46.684383,2.4023604,-7.9730964,31.089876,57.37739,-40.625244,20.157831,-21.013634,-25.585241,-11.076069,-4.2446322
239,19.268169403076172,37.653629302978516,82.01387023925781,-7.0675154234339885,-1.8021778977730174,98.43834385943666,-6.530554,25.573328,-4.176927,49.65403,-19.10856,-15.000033,15.935835,-10.038138,-14.936214,25.29065,-29.064348,15.000033,4.8050733,-2.118988,2.6118958,-35.679985,40.384315,14.802612,-42.39882,2.6724205,-9.129806,28.067108,56.927402,-40.367496,20.034647,-20.092987,-24.99725,-13.262532,-5.145681
240,19.29542350769043,37.614654541015625,81.31006622314453,-8.00125428111114,-2.490204690063337,98.56480413156926,-8.611775,26.167885,-5.754226,53.848454,-20.752586,-15.000033,15.868905,-9.459911,-14.778408,27.762197,-31.648575,15.000033,5.170285,-1.9852513,2.3693523,-43.090794,43.838345,11.220812,-37.214294,3.5333035,-8.846177,28.581976,55.316635,-39.97428,21.2764,-18.216883,-25.634066,-14.251139,-7.518034
